!!!!SEGMENT: pl-cz--i-79--001-001_kasprzykowski-ignacy--symfonia-in-dis-allegro.krn
!!!cenid: 18xx:853
!!!COM: Kasprzykowski, Ignacy
!!!COM-rismID: pe30098316
!!!CDT: -1752/02/17
!!!CNT:
!!!OPR: Symfonia in Dis
!!!OTL: Allegro
!!!OMV: 001
!!!PDT:
!!!AGN: Secular
!!!YEC: Copyright 2022 Narodowy Instytut Fryderyka Chopina (https://polishscores.org)
!!!YEM: License CC-BY-4.0 (https://creativecommons.org/licenses/by/4.0)
!!!SMS-siglum: PL-CZ
!!!SMS-shelfmark: I-79
!!!SMS-shelfwork: 001-001 M
!!!SMS-variant:
!!!SMS-altvar:
!!!NIFC-rismSourceID: 300000578
!!!NIFC-rismChildID: 300000578
!!!NIFC-islandoraID: pl-cz:31949
!!!URL-pdf-islandora: https://repozytorium.nifc.pl/islandora/object/pl-cz%3A31949/datastream/PDF/view
!!!URL-scan: https://polish.musicsources.pl/pl/lokalizacje/galeria/rekopisy/6748/1 @EN{Scan on Polish Music Sources Website} @PL{Skany w portalu Dziedzictwo Muzyki Polskiej w otwartym dostępie}
!!!IIIF:
!!!ONB-nifc:
!!!AIN: 2 clars 2 cor 1 organ 1 timpa 1 viola 2 violn
!!!key: E-
**kern	**dynam	**fba	**kern	**dynam	**kern	**dynam	**kern	**dynam	**kern	**dynam	**kern	**dynam	**kern	**dynam	**kern	**dynam	**kern	**dynam
*group5	*	*	*group4	*	*group4	*	*group4	*	*group3	*	*group2	*	*group2	*	*group1	*	*group1	*
*part9	*	*	*part8	*	*part7	*	*part6	*	*part5	*	*part4	*	*part3	*	*part2	*	*part1	*
*staff9	*	*	*staff8	*	*staff7	*	*staff6	*	*staff5	*	*staff4	*	*staff3	*	*staff2	*	*staff1	*
*I"Organo	*	*	*I"Alto Viola	*	*I"Violino Secundo	*	*I"Violino Primo	*	*I"Tympano in Dis	*	*I"Cornu IIdo in Dis	*	*I"Cornu Primo in Dis	*	*I"Clarinetto Secundo in B:	*	*I"Clarinetto Primo in B:	*
*I'[Org]	*	*	*I'[Vla]	*	*I'[Vl 2]	*	*I'[Vl 1]	*	*I'[Timp in Dis]	*	*I'[Cor 2 in E♭]	*	*I'[Cor 1 in E♭]	*	*I'[Cl 2 in B]	*	*I'[Cl 1 in B]	*
*Iorgan	*	*	*Iviola	*	*Ivioln	*	*Ivioln	*	*Itimpa	*	*Icor	*	*Icor	*	*Iclars	*	*Iclars	*
*ICklav	*	*	*ICstr	*	*ICstr	*	*ICstr	*	*ICidio	*	*ICbras	*	*ICbras	*	*ICww	*	*ICww	*
*IGcont	*	*	*IGacmp	*	*IGacmp	*	*IGacmp	*	*IGacmp	*	*IGacmp	*	*IGacmp	*	*IGacmp	*	*IGacmp	*
*clefF4	*	*	*clefC3	*	*clefG2	*	*clefG2	*	*clefF4	*	*clefG2	*	*clefG2	*	*clefG2	*	*clefG2	*
*	*	*	*	*	*	*	*	*	*	*	*ITrd5c9	*	*ITrd5c9	*	*ITrd1c2	*	*ITrd1c2	*
*k[b-e-a-]	*	*	*k[b-e-a-]	*	*k[b-e-a-]	*	*k[b-e-a-]	*	*k[b-e-a-]	*	*k[b-e-a-]	*	*k[b-e-a-]	*	*k[b-e-a-]	*	*k[b-e-a-]	*
*E-:	*	*	*E-:	*	*E-:	*	*E-:	*	*E-:	*	*E-:	*	*E-:	*	*E-:	*	*E-:	*
*M2/2	*	*	*M2/2	*	*M2/2	*	*M2/2	*	*M2/2	*	*M2/2	*	*M2/2	*	*M2/2	*	*M2/2	*
*met(c|)	*	*	*met(c|)	*	*met(c|)	*	*met(c|)	*	*met(c|)	*	*met(c|)	*	*met(c|)	*	*met(c|)	*	*met(c|)	*
*>[A,A,B,B]	*	*	*>[A,A,B,B]	*	*>[A,A,B,B]	*	*>[A,A,B,B]	*	*>[A,A,B,B]	*	*>[A,A,B,B]	*	*>[A,A,B,B]	*	*>[A,A,B,B]	*	*>[A,A,B,B]	*
*>A	*	*	*>A	*	*>A	*	*>A	*	*>A	*	*>A	*	*>A	*	*>A	*	*>A	*
!	!	!	!	!	!	!	!LO:TX:t=P:problem=all\right&colon; global	!	!	!	!	!	!	!	!	!	!	!
!LO:TX:t=P:problem=all\right&colon; global	!	!	!LO:TX:a:t=Synfonia in Dis Allegro	!	!	!	!LO:TX:t=P:4:problem=laski w dół często zakrzywione	!	!	!	!	!	!	!	!	!	!	!
!	!	!	!LO:TX:t=P:problem=4, 16&colon; na liniach dodanych nuta zaznaczana wyłącznie laską, bez pisania główki	!	!	!	!	!	!LO:TX:a:t=Synfonia Allegro	!	!	!	!	!	!	!	!LO:TX:t=P:problem=4, 8&colon; na liniach dodanych nuta zaznaczana wyłącznie laską, bez pisania główki	!
!LO:TX:t=P:problem=4, 8&colon; na liniach dodanych nuta zaznaczana wyłącznie laską, bez pisania główki	!	!	!	!	!	!	!	!	!LO:TX:t=P:problem=all\right&colon; global	!	!LO:TX:t=P:problem=all\right&colon; global	!	!	!	!LO:TX:t=P:4:problem=laski w dół często zakrzywione	!	!	!
!	!	!	!	!	!LO:TX:t=P:problem=4, 16&colon; na liniach dodanych nuta zaznaczana wyłącznie laską, bez pisania główki	!	!LO:TX:t=P:problem=4, 8, 16&colon; na liniach dodanych nuta zaznaczana wyłącznie laską, bez pisania główki	!	!	!	!	!	!LO:TX:t=P:problem=all\right&colon; global	!	!LO:TX:t=P:problem=all\right&colon; global	!	!LO:TX:t=P:problem=all\right&colon; global	!
!LO:TX:t=P:problem=kolejność bemoli&colon;A-, E-, BB-	!	!	!LO:TX:t=P:4:problem=laski w dół często zakrzywione	!	!LO:TX:a:t=Synfonia in Dis Allegro	!	!LO:TX:a:t=Synfonia in Dis Allegro	!	!LO:TX:t=P:problem=kolejność bemoli&colon;E-, BB-, A- (dwie ostatnie jedna nad drugim)	!	!LO:TX:t=P:4:problem= na liniach dodanych nuta zaznaczana wyłącznie laską, bez pisania główki	!	!	!	!	!	!	!
!LO:TX:a:t=Synfonia in Dis Allegro	!	!	!LO:TX:t=P:problem=kolejność bemoli&colon;e-, B-, a-	!	!LO:TX:t=P:problem=kolejność bemoli&colon;ee-, b-, a-	!	!LO:TX:t=P:problem=kolejność bemoli&colon;ee-, b-, a-	!	!LO:TX:t=P:problem=w tym przypadku "in Dis" nie oznacza transpozycji, tylko prawdopodobnie nastrojenie kotłów	!	!LO:TX:a:t=Synfonia Allegro	!	!LO:TX:a:t=Synfonia Allegro	!	!LO:TX:a:t=Synfonia Allegro	!	!LO:TX:a:t=Synfonia Allegro	!
4r	.	.	4r	.	4r	.	8B-/L	.	4r	.	4r	.	4r	.	4r	.	4r	.
.	.	.	.	.	.	.	8B-/J	.	.	.	.	.	.	.	.	.	.	.
=1	=1	=1	=1	=1	=1	=1	=1	=1	=1	=1	=1	=1	=1	=1	=1	=1	=1	=1
*2\right	*	*	*	*	*	*	*	*	*	*	*	*	*	*	*	*	*	*
!	!	!	!LO:TX:b:t=|:problem	!LO:DY:b:rj:t=pia	!	!LO:DY:b:rj:t=pia	!	!	!LO:TX:a:t=12.	!	!LO:TX:a:t=12	!	!LO:TX:a:t=12	!	!LO:TX:a:t=12	!	!LO:TX:a:t=12	!
2E-\	.	.	8E-/L	p	8G/L 8e-/	p	2G/ 2e-/	.	1r	.	1r	.	1r	.	1r	.	1r	.
!	!	!	!LO:TX:b:t=|:problem	!	!	!	!	!	!	!	!	!	!	!	!	!	!	!
.	.	.	8E-/	.	8G/ 8e-/	.	.	.	.	.	.	.	.	.	.	.	.	.
!	!	!	!LO:TX:b:t=|:problem	!	!	!	!	!	!	!	!	!	!	!	!	!	!	!
.	.	.	8E-/	.	8G/ 8e-/	.	.	.	.	.	.	.	.	.	.	.	.	.
!	!	!	!LO:TX:b:t=|:problem	!	!	!	!	!	!	!	!	!	!	!	!	!	!	!
.	.	.	8E-/J	.	8G/J 8e-/	.	.	.	.	.	.	.	.	.	.	.	.	.
*	*	*	*tremolo	*	*	*	*	*	*	*	*	*	*	*	*	*	*	*
*	*	*	*	*	*tremolo	*	*	*	*	*	*	*	*	*	*	*	*	*
2r	.	.	8E-/L	.	8G/ 8e-L/	.	4r	.	.	.	.	.	.	.	.	.	.	.
.	.	.	8E-/	.	8G/ 8e-/	.	.	.	.	.	.	.	.	.	.	.	.	.
.	.	.	8E-/	.	8G/ 8e-/	.	8B-/L	.	.	.	.	.	.	.	.	.	.	.
.	.	.	8E-/J	.	8G/ 8e-J/	.	8B-/J	.	.	.	.	.	.	.	.	.	.	.
=2	=2	=2	=2	=2	=2	=2	=2	=2	=2-	=2	=2-	=2	=2-	=2	=2-	=2	=2-	=2
2E-\	.	.	8C/L	.	8G/ 8e-L/	.	2G/ 2e-/	.	1r	.	1r	.	1r	.	1r	.	1r	.
.	.	.	8C/	.	8G/ 8e-/	.	.	.	.	.	.	.	.	.	.	.	.	.
.	.	.	8C/	.	8G/ 8e-/	.	.	.	.	.	.	.	.	.	.	.	.	.
.	.	.	8C/J	.	8G/ 8e-J/	.	.	.	.	.	.	.	.	.	.	.	.	.
2r	.	.	8E-/L	.	8G/ 8e-L/	.	4r	.	.	.	.	.	.	.	.	.	.	.
.	.	.	8E-/	.	8G/ 8e-/	.	.	.	.	.	.	.	.	.	.	.	.	.
.	.	.	8E-/	.	8G/ 8e-/	.	8B-/L	.	.	.	.	.	.	.	.	.	.	.
.	.	.	8E-/J	.	8G/ 8e-J/	.	8B-/J	.	.	.	.	.	.	.	.	.	.	.
=3	=3	=3	=3	=3	=3	=3	=3	=3	=3-	=3	=3-	=3	=3-	=3	=3-	=3	=3-	=3
4E-\	.	.	8E-/L	.	8G/ 8e-L/	.	4G/ 4e-/	.	1r	.	1r	.	1r	.	1r	.	1r	.
.	.	.	8E-/	.	8G/ 8e-/	.	.	.	.	.	.	.	.	.	.	.	.	.
!	!	!	!	!	!	!	!LO:TX:b:t=|:problem	!	!	!	!	!	!	!	!	!	!	!
4r	.	.	8E-/	.	8G/ 8e-/	.	4g/	.	.	.	.	.	.	.	.	.	.	.
.	.	.	8E-/J	.	8G/ 8e-J/	.	.	.	.	.	.	.	.	.	.	.	.	.
!	!	!	!	!	!	!	!LO:TX:b:t=|:problem	!	!	!	!	!	!	!	!	!	!	!
2r	.	.	8E-/L	.	8G/ 8e-L/	.	4b-/	.	.	.	.	.	.	.	.	.	.	.
.	.	.	8E-/	.	8G/ 8e-/	.	.	.	.	.	.	.	.	.	.	.	.	.
!	!	!	!	!	!	!	!LO:TX:b:t=|:problem	!	!	!	!	!	!	!	!	!	!	!
.	.	.	8E-/	.	8G/ 8e-/	.	4g/	.	.	.	.	.	.	.	.	.	.	.
.	.	.	8E-/J	.	8G/ 8e-J/	.	.	.	.	.	.	.	.	.	.	.	.	.
=4	=4	=4	=4	=4	=4	=4	=4	=4	=4-	=4	=4-	=4	=4-	=4	=4-	=4	=4-	=4
4E-\	.	.	8E-/L	.	8G/ 8e-L/	.	4G/ 4e-/	.	1r	.	1r	.	1r	.	1r	.	1r	.
.	.	.	8E-/	.	8G/ 8e-/	.	.	.	.	.	.	.	.	.	.	.	.	.
4E-\	.	.	8E-/	.	8G/ 8e-/	.	4G/ 4e-/	.	.	.	.	.	.	.	.	.	.	.
.	.	.	8E-/J	.	8G/ 8e-J/	.	.	.	.	.	.	.	.	.	.	.	.	.
2r	.	.	8E-/L	.	8G/ 8e-L/	.	2r	.	.	.	.	.	.	.	.	.	.	.
.	.	.	8E-/	.	8G/ 8e-/	.	.	.	.	.	.	.	.	.	.	.	.	.
.	.	.	8E-/	.	8G/ 8e-/	.	.	.	.	.	.	.	.	.	.	.	.	.
.	.	.	8E-/J	.	8G/ 8e-J/	.	.	.	.	.	.	.	.	.	.	.	.	.
=5	=5	=5	=5	=5	=5	=5	=5	=5	=5-	=5	=5-	=5	=5-	=5	=5-	=5	=5-	=5
2F\	.	.	8C/L	.	8c/L	.	2A-/ 2f/	.	1r	.	1r	.	1r	.	1r	.	1r	.
.	.	.	8C/	.	8c/	.	.	.	.	.	.	.	.	.	.	.	.	.
.	.	.	8C/	.	8c/	.	.	.	.	.	.	.	.	.	.	.	.	.
.	.	.	8C/J	.	8c/J	.	.	.	.	.	.	.	.	.	.	.	.	.
2r	.	.	8C/L	.	8c/L	.	4r	.	.	.	.	.	.	.	.	.	.	.
.	.	.	8C/	.	8c/	.	.	.	.	.	.	.	.	.	.	.	.	.
.	.	.	8C/	.	8c/	.	8G/L 8en/	.	.	.	.	.	.	.	.	.	.	.
.	.	.	8C/J	.	8c/J	.	8G/J 8e/	.	.	.	.	.	.	.	.	.	.	.
=6	=6	=6	=6	=6	=6	=6	=6	=6	=6-	=6	=6-	=6	=6-	=6	=6-	=6	=6-	=6
2F\	.	.	8C/L	.	8c/L	.	2A-/ 2f/	.	1r	.	1r	.	1r	.	1r	.	1r	.
.	.	.	8C/	.	8c/	.	.	.	.	.	.	.	.	.	.	.	.	.
.	.	.	8C/	.	8c/	.	.	.	.	.	.	.	.	.	.	.	.	.
.	.	.	8C/J	.	8c/J	.	.	.	.	.	.	.	.	.	.	.	.	.
2r	.	.	8C/L	.	8c/L	.	4r	.	.	.	.	.	.	.	.	.	.	.
.	.	.	8C/	.	8c/	.	.	.	.	.	.	.	.	.	.	.	.	.
!	!	!	!	!	!	!	!LO:SIC:n=1:s=8en	!	!	!	!	!	!	!	!	!	!	!
.	.	.	8C/	.	8c/	.	8G/L 8e-/	.	.	.	.	.	.	.	.	.	.	.
!	!	!	!	!	!	!	!LO:SIC:n=1:s=8en	!	!	!	!	!	!	!	!	!	!	!
.	.	.	8C/J	.	8c/J	.	8G/J 8e-/	.	.	.	.	.	.	.	.	.	.	.
=7	=7	=7	=7	=7	=7	=7	=7	=7	=7-	=7	=7-	=7	=7-	=7	=7-	=7	=7-	=7
!	!	!	!	!	!	!	!LO:TX:b:t=|:problem	!	!	!	!	!	!	!	!	!	!	!
4F\	.	.	8C/L	.	8c/L	.	4f/	.	1r	.	1r	.	1r	.	1r	.	1r	.
.	.	.	8C/	.	8c/	.	.	.	.	.	.	.	.	.	.	.	.	.
!	!	!	!	!	!	!	!LO:TX:b:t=|:problem	!	!	!	!	!	!	!	!	!	!	!
4r	.	.	8C/	.	8c/	.	4a-/	.	.	.	.	.	.	.	.	.	.	.
.	.	.	8C/J	.	8c/J	.	.	.	.	.	.	.	.	.	.	.	.	.
!	!	!	!	!	!	!	!LO:TX:b:t=|:problem	!	!	!	!	!	!	!	!	!	!	!
2r	.	.	8C/L	.	8c/L	.	4cc/	.	.	.	.	.	.	.	.	.	.	.
.	.	.	8C/	.	8c/	.	.	.	.	.	.	.	.	.	.	.	.	.
!	!	!	!	!	!	!	!LO:TX:b:t=|:problem	!	!	!	!	!	!	!	!	!	!	!
.	.	.	8C/	.	8c/	.	4a-/	.	.	.	.	.	.	.	.	.	.	.
.	.	.	8C/J	.	8c/J	.	.	.	.	.	.	.	.	.	.	.	.	.
=8	=8	=8	=8	=8	=8	=8	=8	=8	=8-	=8	=8-	=8	=8-	=8	=8-	=8	=8-	=8
!	!	!	!	!	!LO:TX:t=P:problem=brakujący takt	!	!	!	!	!	!	!	!	!	!	!	!	!
4F\	.	.	8C/L	.	1ryy	.	4A-/ 4f/	.	1r	.	1r	.	1r	.	1r	.	1r	.
.	.	.	8C/	.	.	.	.	.	.	.	.	.	.	.	.	.	.	.
4F\	.	.	8C/	.	.	.	4A-/ 4f/	.	.	.	.	.	.	.	.	.	.	.
.	.	.	8C/J	.	.	.	.	.	.	.	.	.	.	.	.	.	.	.
2r	.	.	8C/L	.	.	.	2r	.	.	.	.	.	.	.	.	.	.	.
.	.	.	8C/	.	.	.	.	.	.	.	.	.	.	.	.	.	.	.
.	.	.	8C/	.	.	.	.	.	.	.	.	.	.	.	.	.	.	.
.	.	.	8C/J	.	.	.	.	.	.	.	.	.	.	.	.	.	.	.
!	!	!	!	!	!	!	!LO:LB:g=original	!	!	!	!	!	!	!	!	!	!	!
=9	=9	=9	=9	=9	=9	=9	=9	=9	=9-	=9	=9-	=9	=9-	=9	=9-	=9	=9-	=9
2BB-/	.	.	8B-/L	.	8B-/ 8dL/	.	2d/	.	1r	.	1r	.	1r	.	1r	.	1r	.
.	.	.	8B-/	.	8B-/ 8d/	.	.	.	.	.	.	.	.	.	.	.	.	.
.	.	.	8B-/	.	8B-/ 8d/	.	.	.	.	.	.	.	.	.	.	.	.	.
.	.	.	8B-/J	.	8B-/ 8dJ/	.	.	.	.	.	.	.	.	.	.	.	.	.
2r	.	.	8B-/L	.	8B-/ 8dL/	.	4r	.	.	.	.	.	.	.	.	.	.	.
.	.	.	8B-/	.	8B-/ 8d/	.	.	.	.	.	.	.	.	.	.	.	.	.
.	.	.	8B-/	.	8B-/ 8d/	.	8B-/L	.	.	.	.	.	.	.	.	.	.	.
.	.	.	8B-/J	.	8B-/ 8dJ/	.	8B-/J	.	.	.	.	.	.	.	.	.	.	.
!LO:LB:g=original	!	!	!LO:LB:g=original	!	!	!	!	!	!	!	!	!	!	!	!	!	!	!
=10	=10	=10	=10	=10	=10	=10	=10	=10	=10-	=10	=10-	=10	=10-	=10	=10-	=10	=10-	=10
2BB-/	.	.	8B-/L	.	8B-/ 8dL/	.	2d/	.	1r	.	1r	.	1r	.	1r	.	1r	.
.	.	.	8B-/	.	8B-/ 8d/	.	.	.	.	.	.	.	.	.	.	.	.	.
.	.	.	8B-/	.	8B-/ 8d/	.	.	.	.	.	.	.	.	.	.	.	.	.
.	.	.	8B-/J	.	8B-/ 8dJ/	.	.	.	.	.	.	.	.	.	.	.	.	.
2r	.	.	8B-/L	.	8B-/ 8dL/	.	4r	.	.	.	.	.	.	.	.	.	.	.
.	.	.	8B-/	.	8B-/ 8d/	.	.	.	.	.	.	.	.	.	.	.	.	.
.	.	.	8B-/	.	8B-/ 8d/	.	8B-/L	.	.	.	.	.	.	.	.	.	.	.
.	.	.	8B-/J	.	8B-/ 8dJ/	.	8B-/J	.	.	.	.	.	.	.	.	.	.	.
=11	=11	=11	=11	=11	=11	=11	=11	=11	=11-	=11	=11-	=11	=11-	=11	=11-	=11	=11-	=11
!	!	!	!	!	!	!	!LO:TX:b:t=|:problem	!	!	!	!	!	!	!	!	!	!	!
4BB-/	.	3	8B-/L	.	8B-/ 8dL/	.	4d/	.	1r	.	1r	.	1r	.	1r	.	1r	.
.	.	.	8B-/	.	8B-/ 8d/	.	.	.	.	.	.	.	.	.	.	.	.	.
!	!	!	!	!	!	!	!LO:TX:b:t=|:problem	!	!	!	!	!	!	!	!	!	!	!
4r	.	.	8B-/	.	8B-/ 8d/	.	4f/	.	.	.	.	.	.	.	.	.	.	.
.	.	.	8B-/J	.	8B-/ 8dJ/	.	.	.	.	.	.	.	.	.	.	.	.	.
!	!	!	!	!	!	!	!LO:TX:b:t=|:problem	!	!	!	!	!	!	!	!	!	!	!
2r	.	.	8B-/L	.	8B-/ 8dL/	.	4a-/	.	.	.	.	.	.	.	.	.	.	.
.	.	.	8B-/	.	8B-/ 8d/	.	.	.	.	.	.	.	.	.	.	.	.	.
!	!	!	!	!	!	!	!LO:TX:b:t=|:problem	!	!	!	!	!	!	!	!	!	!	!
.	.	.	8B-/	.	8B-/ 8d/	.	4f/	.	.	.	.	.	.	.	.	.	.	.
.	.	.	8B-/J	.	8B-/ 8dJ/	.	.	.	.	.	.	.	.	.	.	.	.	.
=12	=12	=12	=12	=12	=12	=12	=12	=12	=12-	=12	=12-	=12	=12-	=12	=12-	=12	=12-	=12
!	!	!	!	!	!	!	!LO:TX:b:t=|:problem	!	!	!	!	!	!	!	!	!	!	!
4BB-/	.	3:	8B-/L	.	8B-/ 8dL/	.	4d/	.	1r	.	1r	.	1r	.	1r	.	1r	.
.	.	.	8B-/	.	8B-/ 8d/	.	.	.	.	.	.	.	.	.	.	.	.	.
!	!	!	!	!	!	!	!LO:TX:b:t=|:problem	!	!	!	!	!	!	!	!	!	!	!
4BB-/	.	.	8B-/	.	8B-/ 8d/	.	4d/	.	.	.	.	.	.	.	.	.	.	.
.	.	.	8B-/J	.	8B-/ 8dJ/	.	.	.	.	.	.	.	.	.	.	.	.	.
2r	.	.	8B-/L	.	8B-/ 8dL/	.	4r	.	.	.	.	.	.	.	.	.	.	.
.	.	.	8B-/	.	8B-/ 8d/	.	.	.	.	.	.	.	.	.	.	.	.	.
.	.	.	8B-/	.	8B-/ 8d/	.	8B-/L	.	.	.	.	.	.	.	.	.	.	.
.	.	.	8B-/J	.	8B-/ 8dJ/	.	8B-/J	.	.	.	.	.	.	.	.	.	.	.
*	*	*	*Xtremolo	*	*Xtremolo	*	*	*	*	*	*	*	*	*	*	*	*	*
!	!	!	!	!	!LO:LB:g=original	!	!	!	!	!	!	!	!	!	!	!	!	!
=13	=13	=13	=13	=13	=13	=13	=13	=13	=13	=13	=13	=13	=13	=13	=13	=13	=13	=13
*tremolo	*	*	*	*	*	*	*	*	*	*	*2\right	*	*2\right	*	*2\right	*	*2\right	*
!	!	!	!	!LO:DY:b:rj:t=for	!	!LO:DY:a:rj:t=for	!	!LO:DY:b:rj:t=for	!	!	!LO:TX:t=P:problem=all\right&colon; global	!LO:DY:b:rj:t=for	!LO:TX:t=P:problem=all\right&colon; global	!LO:DY:b:rj:t=for	!LO:TX:t=P:problem=all\right&colon; global	!LO:DY:b:rj:t=for	!LO:TX:t=P:problem=all\right&colon; global	!LO:DY:a:rj:t=for
8E-\L	.	.	8G/ 8e-	f	8G/ 8e-/	f	2G/ 2e-/	f	4E-\	f	2E-/	f	2e-\	f	2ee-\	f	2gg\	f
8E-\	.	.	4G/ 4e-	.	4G/ 4e-/	.	.	.	.	.	.	.	.	.	.	.	.	.
!	!	!	!	!	!	!	!	!	!LO:TUP:a:problem=klamra łukowa	!	!	!	!	!	!	!	!	!
8E-\	.	.	.	.	.	.	.	.	12E-\L	.	.	.	.	.	.	.	.	.
.	.	.	.	.	.	.	.	.	12E-\	.	.	.	.	.	.	.	.	.
8E-\J	.	.	4G/ 4e-	.	4G/ 4e-/	.	.	.	.	.	.	.	.	.	.	.	.	.
.	.	.	.	.	.	.	.	.	12E-\J	.	.	.	.	.	.	.	.	.
*	*	*	*	*	*	*	*	*	*	*	*head:invis	*	*	*	*	*	*	*
8E-\L	.	.	.	.	.	.	4g/	.	4E-\	.	4E-/	.	4e-\	.	4ee-\	.	4gg\	.
8E-\	.	.	4G/ 4e-	.	4G/ 4e-/	.	.	.	.	.	.	.	.	.	.	.	.	.
8E-\	.	.	.	.	.	.	4b-/	.	4r	.	4E-/	.	4e-\	.	4ee-\	.	4gg\	.
8E-\J	.	.	8G/ 8e-	.	8G/ 8e-/	.	.	.	.	.	.	.	.	.	.	.	.	.
*	*	*	*	*	*	*	*	*	*	*	*Xhead	*	*	*	*	*	*	*
=14	=14	=14	=14	=14	=14	=14	=14	=14	=14	=14	=14	=14	=14	=14	=14	=14	=14	=14
*	*	*	*	*	*	*	*2\right	*	*	*	*	*	*	*	*	*	*	*
!	!	!	!	!	!	!	!	!	!LO:TX:a:t=|:problem	!	!	!	!	!	!	!	!	!
8E-\L	.	.	8G/ 8e-/	.	8G/ 8e-/	.	2e-\ 2ee-\	.	4E-\	.	1G	.	1e-	.	1ee-	.	1gg	.
8E-\	.	.	4G/ 4e-/	.	4G/ 4e-/	.	.	.	.	.	.	.	.	.	.	.	.	.
!	!	!	!	!	!	!	!	!	!LO:TUP:a:problem=klamra łukowa	!	!	!	!	!	!	!	!	!
8E-\	.	.	.	.	.	.	.	.	12E-\L	.	.	.	.	.	.	.	.	.
.	.	.	.	.	.	.	.	.	12E-\	.	.	.	.	.	.	.	.	.
8E-\J	.	.	4G/ 4e-/	.	4G/ 4e-/	.	.	.	.	.	.	.	.	.	.	.	.	.
.	.	.	.	.	.	.	.	.	12E-\J	.	.	.	.	.	.	.	.	.
8E-\L	.	.	.	.	.	.	4b-\	.	4E-\	.	.	.	.	.	.	.	.	.
8E-\	.	.	4G/ 4e-/	.	4G/ 4e-/	.	.	.	.	.	.	.	.	.	.	.	.	.
8E-\	.	.	.	.	.	.	4g\	.	4r	.	.	.	.	.	.	.	.	.
8E-\J	.	.	8G/ 8e-/	.	8G/ 8e-/	.	.	.	.	.	.	.	.	.	.	.	.	.
=15	=15	=15	=15	=15	=15/	=15	=15	=15	=15	=15	=15	=15	=15	=15	=15	=15	=15	=15
8E-\L	.	.	8G/ 8e-/	.	8G/ 8e-/	.	2b-\ 2gg\	.	4E-\	.	2e-\	.	2g\	.	2ee-\	.	2gg\	.
8E-\	.	.	4G/ 4e-/	.	8G/ 8e-/	.	.	.	.	.	.	.	.	.	.	.	.	.
!	!	!	!	!	!	!	!	!	!LO:TUP:a:problem=klamra łukowa	!	!	!	!	!	!	!	!	!
8E-\	.	.	.	.	8G/L 8e-/	.	.	.	12E-\L	.	.	.	.	.	.	.	.	.
.	.	.	.	.	.	.	.	.	12E-\	.	.	.	.	.	.	.	.	.
!	!	!	!	!	!LO:TX:a:t=bis	!	!	!	!	!	!	!	!	!	!	!	!	!
8E-\J	.	.	4G/ 4e-/	.	8G/J 8e-/	.	.	.	.	.	.	.	.	.	.	.	.	.
.	.	.	.	.	.	.	.	.	12E-\J	.	.	.	.	.	.	.	.	.
8E-\L	.	.	.	.	8G/ 8e-/	.	4ee-\	.	4E-\	.	2e-\	.	2g\	.	2ee-\	.	2gg\	.
8E-\	.	.	4G/ 4e-/	.	4G/ 4e-/	.	.	.	.	.	.	.	.	.	.	.	.	.
8E-\	.	.	.	.	.	.	4b-\	.	4r	.	.	.	.	.	.	.	.	.
8E-\J	.	.	8G/ 8e-/	.	8G/ 8e-/	.	.	.	.	.	.	.	.	.	.	.	.	.
=16	=16	=16	=16	=16	=16	=16	=16	=16	=16	=16	=16	=16	=16	=16	=16	=16	=16	=16
!	!	!	!	!	!LO:TX:t=P:problem=t. 17-19 zapisane powtórką	!	!	!	!	!	!	!	!	!	!	!	!	!
8E-\L	.	.	8G/ 8e-/	.	8G/yy 8e-/yy	.	2b-\ 2bb-\	.	4E-\	.	1e-	.	1g	.	1ee-	.	1gg	.
8E-\	.	.	4G/ 4e-/	.	4G/yy 4e-/yy	.	.	.	.	.	.	.	.	.	.	.	.	.
!	!	!	!	!	!	!	!	!	!LO:TUP:a:problem=klamra łukowa	!	!	!	!	!	!	!	!	!
8E-\	.	.	.	.	.	.	.	.	12E-\L	.	.	.	.	.	.	.	.	.
.	.	.	.	.	.	.	.	.	12E-\	.	.	.	.	.	.	.	.	.
8E-\J	.	.	4G/ 4e-/	.	4G/yy 4e-/yy	.	.	.	.	.	.	.	.	.	.	.	.	.
.	.	.	.	.	.	.	.	.	12E-\J	.	.	.	.	.	.	.	.	.
8E-\L	.	.	.	.	.	.	4gg\	.	4E-\	.	.	.	.	.	.	.	.	.
8E-\	.	.	4G/ 4e-/	.	4G/yy 4e-/yy	.	.	.	.	.	.	.	.	.	.	.	.	.
8E-\	.	.	.	.	.	.	4ee-\	.	4r	.	.	.	.	.	.	.	.	.
8E-\J	.	.	8G/ 8e-/	.	8G/yy 8e-/yy	.	.	.	.	.	.	.	.	.	.	.	.	.
=17	=17	=17	=17	=17	=17	=17	=17	=17	=17	=17	=17	=17	=17	=17	=17	=17	=17	=17
8E-\L	.	.	8G/ 8e-/	.	8G/yy 8e-/yy	.	2eee-\	.	4E-\	.	2e-\	.	2g\	.	2ee-\	.	2gg\	.
8E-\	.	.	4G/ 4e-/	.	4G/yy 4e-/yy	.	.	.	.	.	.	.	.	.	.	.	.	.
!	!	!	!	!	!	!	!	!	!LO:TUP:a:problem=klamra łukowa	!	!	!	!	!	!	!	!	!
8E-\	.	.	.	.	.	.	.	.	12E-\L	.	.	.	.	.	.	.	.	.
.	.	.	.	.	.	.	.	.	12E-\	.	.	.	.	.	.	.	.	.
8E-\J	.	.	4G/ 4e-/	.	4G/yy 4e-/yy	.	.	.	.	.	.	.	.	.	.	.	.	.
.	.	.	.	.	.	.	.	.	12E-\J	.	.	.	.	.	.	.	.	.
8E-\L	.	.	.	.	.	.	4bb-\	.	4E-\	.	2e-\	.	2g\	.	2ee-\	.	2gg\	.
8E-\	.	.	4G/ 4e-/	.	4G/yy 4e-/yy	.	.	.	.	.	.	.	.	.	.	.	.	.
8E-\	.	.	.	.	.	.	4gg\	.	4E-\	.	.	.	.	.	.	.	.	.
8E-\J	.	.	8G/ 8e-/	.	8G/yy 8e-/yy	.	.	.	.	.	.	.	.	.	.	.	.	.
!	!	!	!LO:LB:g=original	!	!	!	!	!	!LO:LB:g=original	!	!	!	!	!	!	!	!	!
=18	=18	=18	=18	=18	=18	=18	=18	=18	=18	=18	=18	=18	=18	=18	=18	=18	=18	=18
!	!	!	!	!	!	!	!LO:TX:a:t=|:problem	!	!	!	!	!	!	!	!	!	!	!
8E-\L	.	.	8G/ 8e-/	.	8G/yy 8e-/yy	.	4ee-\	.	4E-\	.	1e-	.	1g	.	1ee-	.	1gg	.
8E-\	.	.	4G/ 4e-/	.	8G/yy 8e-/yy	.	.	.	.	.	.	.	.	.	.	.	.	.
!	!	!	!	!	!	!	!LO:TX:a:t=|:problem	!	!	!	!	!	!	!	!	!	!	!
8E-\	.	.	.	.	8G/Lyy 8e-/yy	.	4b-\	.	4E-\	.	.	.	.	.	.	.	.	.
8E-\J	.	.	4G/ 4e-/	.	8G/Jyy 8e-/yy	.	.	.	.	.	.	.	.	.	.	.	.	.
!	!	!	!	!	!	!	!LO:TX:a:t=|:problem	!	!	!	!	!	!	!	!	!	!	!
8E-\L	.	.	.	.	8G/yy 8e-/yy	.	4g\	.	4E-\	.	.	.	.	.	.	.	.	.
8E-\	.	.	4G/ 4e-/	.	4G/yy 4e-/yy	.	.	.	.	.	.	.	.	.	.	.	.	.
!	!	!	!	!	!	!	!LO:TX:a:t=|:problem	!	!	!	!	!	!	!	!	!	!	!
8E-\	.	.	.	.	.	.	4e-\	.	4E-\	.	.	.	.	.	.	.	.	.
8E-\J	.	.	8G/ 8e-/	.	8G/yy 8e-/yy	.	.	.	.	.	.	.	.	.	.	.	.	.
!	!	!	!	!	!	!	!LO:LB:g=original	!	!	!	!	!	!	!	!	!	!	!
=19	=19	=19	=19	=19	=19	=19	=19	=19	=19	=19	=19	=19	=19	=19	=19	=19	=19	=19
!	!	!	!	!	!	!	!LO:TX:b:t=|:problem	!	!	!	!	!	!	!	!	!	!	!
8E-\L	.	.	8G/ 8e-/	.	8G/ 8e-/	.	4g/	.	4E-\	.	2G/	.	2e-\	.	2ee-\	.	2gg\	.
8E-\	.	.	4G/ 4e-/	.	4G/ 4e-/	.	.	.	.	.	.	.	.	.	.	.	.	.
!	!	!	!	!	!	!	!LO:TX:b:t=|:problem	!	!LO:TUP:a:problem=klamra łukowa	!	!	!	!	!	!	!	!	!
8E-\	.	.	.	.	.	.	4b-/	.	12E-\L	.	.	.	.	.	.	.	.	.
.	.	.	.	.	.	.	.	.	12E-\	.	.	.	.	.	.	.	.	.
8E-\J	.	.	4G/ 4e-/	.	4G/ 4e-/	.	.	.	.	.	.	.	.	.	.	.	.	.
.	.	.	.	.	.	.	.	.	12E-\J	.	.	.	.	.	.	.	.	.
!	!	!	!	!	!	!	!LO:TX:b:t=|:problem	!	!	!	!	!	!	!	!	!	!	!
8E-\L	.	.	.	.	.	.	4ee-/	.	4E-\	.	2G/	.	2e-\	.	2ee-\	.	2gg\	.
8E-\	.	.	4G/ 4e-/	.	4G/ 4e-/	.	.	.	.	.	.	.	.	.	.	.	.	.
!	!	!	!	!	!	!	!LO:TX:b:t=|:problem	!	!	!	!	!	!	!	!	!	!	!
8E-\	.	.	.	.	.	.	4b-/	.	4E-\	.	.	.	.	.	.	.	.	.
8E-\J	.	.	8G/ 8e-/	.	8G/ 8e-/	.	.	.	.	.	.	.	.	.	.	.	.	.
*Xtremolo	*	*	*	*	*	*	*	*	*	*	*	*	*	*	*	*	*	*
!LO:LB:g=original	!	!	!	!	!	!	!	!	!	!	!	!	!	!	!	!	!	!
=20	=20	=20	=20	=20	=20	=20	=20	=20	=20	=20	=20	=20	=20	=20	=20	=20	=20	=20
*	*	*	*	*	*	*	*	*	*	*	*	*	*	*	*	*	*head:invis	*
!	!	!	!	!	!	!	!LO:TX:b:t=|:problem	!	!	!	!	!	!	!	!	!	!	!
4E-\	.	.	8G/ 8e-/	.	8G/ 8e-/	.	4g/	.	4E-\	.	4G/	.	4e-\	.	4ee-\	.	4gg\	.
.	.	.	4G/ 4e-/	.	4G/ 4e-/	.	.	.	.	.	.	.	.	.	.	.	.	.
!	!	!	!	!	!	!	!LO:TX:b:t=|:problem	!	!	!	!	!	!	!	!	!	!	!
4B-\	.	.	.	.	.	.	4b-/	.	4E-\	.	4G/	.	4e-\	.	4ee-\	.	4gg\	.
.	.	.	4G/ 4e-/	.	4G/ 4e-/	.	.	.	.	.	.	.	.	.	.	.	.	.
!	!	!	!	!	!	!	!LO:TX:b:t=|:problem	!	!	!	!	!	!	!	!	!	!	!
4G\	.	.	.	.	.	.	4g/	.	4E-\	.	4G/	.	4e-\	.	4ee-\	.	4gg\	.
.	.	.	4G/ 4e-/	.	4G/ 4e-/	.	.	.	.	.	.	.	.	.	.	.	.	.
!	!	!	!	!	!	!	!LO:TX:b:t=|:problem	!	!	!	!	!	!	!	!	!	!	!
4E-\	.	.	.	.	.	.	4e-/	.	4E-\	.	4G/	.	4e-\	.	4ee-\	.	4gg\	.
.	.	.	8G/ 8e-/	.	8G/ 8e-/	.	.	.	.	.	.	.	.	.	.	.	.	.
*	*	*	*	*	*	*	*	*	*	*	*	*	*	*	*	*	*Xhead	*
!	!	!	!	!	!	!	!	!	!	!	!LO:LB:g=original	!	!LO:LB:g=original	!	!	!	!LO:LB:g=original	!
=21	=21	=21	=21	=21	=21	=21	=21	=21	=21	=21	=21	=21	=21	=21	=21	=21	=21	=21
*tremolo	*	*	*2\right	*	*	*	*	*	*	*	*	*	*	*	*	*	*	*
!	!	!	!LO:TX:t=P:problem=all\right&colon; global	!	!	!	!	!	!	!	!	!	!	!	!	!	!	!
8BB-/L	.	.	8B-\ 8d\	.	8d/ 8b-/	.	2B-/	.	4BB-/	.	2B-/	.	2f\	.	2dd\	.	2ff\	.
8BB-/	.	.	4B-\ 4d\	.	4d/ 4b-/	.	.	.	.	.	.	.	.	.	.	.	.	.
!	!	!	!	!	!	!	!	!	!LO:TUP:b:problem=klamra łukowa	!	!	!	!	!	!	!	!	!
8BB-/	.	.	.	.	.	.	.	.	12BB-/L	.	.	.	.	.	.	.	.	.
.	.	.	.	.	.	.	.	.	12BB-/	.	.	.	.	.	.	.	.	.
8BB-/J	.	.	4B-\ 4d\	.	4d/ 4b-/	.	.	.	.	.	.	.	.	.	.	.	.	.
.	.	.	.	.	.	.	.	.	12BB-/J	.	.	.	.	.	.	.	.	.
!	!	!	!	!	!	!	!	!	!LO:TX:b:t=|:problem	!	!	!	!	!	!	!	!	!
8BB-/L	.	.	.	.	.	.	4d/	.	4BB-/	.	4B-/	.	4f\	.	4dd\	.	4ff\	.
8BB-/	.	.	4B-\ 4d\	.	4d/ 4b-/	.	.	.	.	.	.	.	.	.	.	.	.	.
8BB-/	.	.	.	.	.	.	4f/	.	4r	.	4B-/	.	4f\	.	4dd\	.	4ff\	.
8BB-/J	.	.	8B-\ 8d\	.	8d/ 8b-/	.	.	.	.	.	.	.	.	.	.	.	.	.
!	!	!	!	!	!LO:LB:g=original	!	!	!	!	!	!	!	!	!	!	!	!	!
=22	=22	=22	=22	=22	=22	=22	=22	=22	=22	=22	=22	=22	=22	=22	=22	=22	=22	=22
8BB-/L	.	.	8B-\ 8d\	.	8d/ 8b-/	.	2b-\	.	4BB-/	.	2B-/	.	2f\	.	2dd\	.	2ff\	.
8BB-/	.	.	4B-\ 4d\	.	4d/ 4b-/	.	.	.	.	.	.	.	.	.	.	.	.	.
!	!	!	!	!	!	!	!	!	!LO:TUP:b:problem=klamra łukowa	!	!	!	!	!	!	!	!	!
8BB-/	.	.	.	.	.	.	.	.	12BB-/L	.	.	.	.	.	.	.	.	.
.	.	.	.	.	.	.	.	.	12BB-/	.	.	.	.	.	.	.	.	.
8BB-/J	.	.	4B-\ 4d\	.	4d/ 4b-/	.	.	.	.	.	.	.	.	.	.	.	.	.
.	.	.	.	.	.	.	.	.	12BB-/J	.	.	.	.	.	.	.	.	.
8BB-/L	.	.	.	.	.	.	4dd\	.	4BB-/	.	2B-/	.	2f\	.	2dd\	.	2ff\	.
8BB-/	.	.	4B-\ 4d\	.	4d/ 4b-/	.	.	.	.	.	.	.	.	.	.	.	.	.
8BB-/	.	.	.	.	.	.	4ff\	.	4r	.	.	.	.	.	.	.	.	.
8BB-/J	.	.	8B-\ 8d\	.	8d/ 8b-/	.	.	.	.	.	.	.	.	.	.	.	.	.
=23	=23	=23	=23	=23	=23	=23	=23	=23	=23	=23	=23	=23	=23	=23	=23	=23	=23	=23
8BB-/L	.	.	8B-\ 8d\	.	8d/ 8b-/	.	2aa-\	.	4BB-/	.	1B-	.	1f	.	1dd	.	1ff	.
8BB-/	.	.	4B-\ 4d\	.	4d/ 4b-/	.	.	.	.	.	.	.	.	.	.	.	.	.
!	!	!	!	!	!	!	!	!	!LO:TUP:b:problem=klamra łukowa	!	!	!	!	!	!	!	!	!
8BB-/	.	.	.	.	.	.	.	.	12BB-/L	.	.	.	.	.	.	.	.	.
.	.	.	.	.	.	.	.	.	12BB-/	.	.	.	.	.	.	.	.	.
8BB-/J	.	.	4B-\ 4d\	.	4d/ 4b-/	.	.	.	.	.	.	.	.	.	.	.	.	.
.	.	.	.	.	.	.	.	.	12BB-/J	.	.	.	.	.	.	.	.	.
8BB-/L	.	.	.	.	.	.	4ff\	.	4BB-/	.	.	.	.	.	.	.	.	.
8BB-/	.	.	4B-\ 4d\	.	4d/ 4b-/	.	.	.	.	.	.	.	.	.	.	.	.	.
8BB-/	.	.	.	.	.	.	4dd\	.	4BB-/	.	.	.	.	.	.	.	.	.
8BB-/J	.	.	8B-\ 8d\	.	8d/ 8b-/	.	.	.	.	.	.	.	.	.	.	.	.	.
!	!	!	!LO:LB:g=original	!	!	!	!	!	!LO:LB:g=original	!	!	!	!	!	!LO:LB:g=original	!	!	!
=24	=24	=24	=24	=24	=24	=24	=24	=24	=24	=24	=24	=24	=24	=24	=24	=24	=24	=24
8BB-/L	.	.	8B-\ 8d\	.	8d/ 8b-/	.	2ccc\	.	4BB-/	.	2B-/	.	2f\	.	2dd\	.	2ff\	.
8BB-/	.	.	4B-\ 4d\	.	4d/ 4b-/	.	.	.	.	.	.	.	.	.	.	.	.	.
8BB-/	.	.	.	.	.	.	.	.	4BB-/	.	.	.	.	.	.	.	.	.
8BB-/J	.	.	4B-\ 4d\	.	4d/ 4b-/	.	.	.	.	.	.	.	.	.	.	.	.	.
8BB-/L	.	.	.	.	.	.	4aa-\	.	4BB-/	.	4B-/	.	4f\	.	4dd\	.	4ff\	.
8BB-/	.	.	4B-\ 4d\	.	4d/ 4b-/	.	.	.	.	.	.	.	.	.	.	.	.	.
8BB-/	.	.	.	.	.	.	4ff\	.	4BB-/	.	4B-/	.	4f\	.	4dd\	.	4ff\	.
8BB-/J	.	.	8B-\ 8d\	.	8d/ 8b-/	.	.	.	.	.	.	.	.	.	.	.	.	.
=25	=25	=25	=25	=25	=25	=25	=25	=25	=25	=25	=25	=25	=25	=25	=25	=25	=25	=25
8BB-/L	.	.	8B-\ 8d\	.	8d/ 8b-/	.	4dd\	.	4BB-/	.	1B-	.	1f	.	1dd	.	1ff	.
8BB-/	.	.	4B-\ 4d\	.	4d/ 4b-/	.	.	.	.	.	.	.	.	.	.	.	.	.
!	!	!	!	!	!	!	!	!	!LO:TUP:b:problem=klamra łukowa	!	!	!	!	!	!	!	!	!
8BB-/	.	.	.	.	.	.	4ff\	.	12BB-/L	.	.	.	.	.	.	.	.	.
.	.	.	.	.	.	.	.	.	12BB-/	.	.	.	.	.	.	.	.	.
8BB-/J	.	.	4B-\ 4d\	.	4d/ 4b-/	.	.	.	.	.	.	.	.	.	.	.	.	.
.	.	.	.	.	.	.	.	.	12BB-/J	.	.	.	.	.	.	.	.	.
8BB-/L	.	.	.	.	.	.	4aa-\	.	4BB-/	.	.	.	.	.	.	.	.	.
8BB-/	.	.	4B-\ 4d\	.	4d/ 4b-/	.	.	.	.	.	.	.	.	.	.	.	.	.
8BB-/	.	.	.	.	.	.	4b-\ 4ff\	.	4BB-/	.	.	.	.	.	.	.	.	.
8BB-/J	.	.	8B-\ 8d\	.	8d/ 8b-/	.	.	.	.	.	.	.	.	.	.	.	.	.
=26	=26	=26	=26	=26	=26	=26	=26	=26	=26	=26	=26	=26	=26	=26	=26	=26	=26	=26
8BB-/L	.	.	8B-\ 8d\	.	8d/ 8b-/	.	4dd\	.	4BB-/	.	4B-/	.	4f\	.	4dd\	.	4ff\	.
8BB-/	.	.	4B-\ 4d\	.	4d/ 4b-/	.	.	.	.	.	.	.	.	.	.	.	.	.
8BB-/	.	.	.	.	.	.	4ff\	.	4BB-/	.	4B-/	.	4f\	.	4dd\	.	4ff\	.
8BB-/J	.	.	4B-\ 4d\	.	4d/ 4b-/	.	.	.	.	.	.	.	.	.	.	.	.	.
8BB-/L	.	.	.	.	.	.	4dd\	.	4BB-/	.	4B-/	.	4f\	.	4dd\	.	4ff\	.
8BB-/	.	.	4B-\ 4d\	.	4d/ 4b-/	.	.	.	.	.	.	.	.	.	.	.	.	.
8BB-/	.	.	.	.	.	.	4b-\	.	4BB-/	.	4B-/	.	4f\	.	4dd\	.	4ff\	.
8BB-/J	.	.	8B-\ 8d\	.	8d/ 8b-/	.	.	.	.	.	.	.	.	.	.	.	.	.
=27	=27	=27	=27	=27	=27	=27	=27	=27	=27	=27	=27	=27	=27	=27	=27	=27	=27	=27
!	!	!	!	!	!LO:TX:t=P:problem=zbędnie powtórzony takt	!	!	!	!	!	!	!	!	!	!	!	!	!
1ryy	.	.	1ryy	.	8d/ 8b-/	.	1ryy	.	1ryy	.	1ryy	.	1ryy	.	1ryy	.	1ryy	.
.	.	.	.	.	4d/ 4b-/	.	.	.	.	.	.	.	.	.	.	.	.	.
.	.	.	.	.	4d/ 4b-/	.	.	.	.	.	.	.	.	.	.	.	.	.
.	.	.	.	.	4d/ 4b-/	.	.	.	.	.	.	.	.	.	.	.	.	.
.	.	.	.	.	8d/ 8b-/	.	.	.	.	.	.	.	.	.	.	.	.	.
!	!	!	!	!	!LO:LB:g=original	!	!	!	!	!	!	!	!	!	!	!	!	!
=28	=28	=28	=28	=28	=28	=28	=28	=28	=28	=28	=28	=28	=28	=28	=28	=28	=28	=28
*	*	*	*tremolo	*	*tremolo	*	*	*	*	*	*	*	*	*	*	*	*	*
!	!	!	!	!LO:DY:b:rj:t=for	!	!LO:DY:b:rj:t=for	!	!LO:DY:a:rj:t=for	!	!	!	!LO:DY:b:t=forfor	!	!LO:DY:b:rj:t=for	!	!	!	!
8E-\L	.	.	16e-\LL	f	16G/ 16e-LL/	f	4.ee-\	f	4E-\	.	1e-	ff	1g	f	1ee-	.	1gg	.
.	.	.	16e-\	.	16G/ 16e-/	.	.	.	.	.	.	.	.	.	.	.	.	.
8E-\	.	.	16e-\	.	16G/ 16e-/	.	.	.	.	.	.	.	.	.	.	.	.	.
.	.	.	16e-\JJ	.	16G/ 16e-JJ/	.	.	.	.	.	.	.	.	.	.	.	.	.
!	!	!	!	!	!	!	!	!	!LO:TUP:a:problem=klamra łukowa	!	!	!	!	!	!	!	!	!
8E-\	.	.	16B-\LL	.	16B-/LL	.	.	.	12E-\L	.	.	.	.	.	.	.	.	.
.	.	.	16B-\	.	16B-/	.	.	.	.	.	.	.	.	.	.	.	.	.
.	.	.	.	.	.	.	.	.	12E-\	.	.	.	.	.	.	.	.	.
8E-\J	.	.	16B-\	.	16B-/	.	8b-\	.	.	.	.	.	.	.	.	.	.	.
.	.	.	.	.	.	.	.	.	12E-\J	.	.	.	.	.	.	.	.	.
.	.	.	16B-\JJ	.	16B-/JJ	.	.	.	.	.	.	.	.	.	.	.	.	.
!	!	!	!	!	!	!	!	!	!LO:TX:a:t=|:problem	!	!	!	!	!	!	!	!	!
8E-\L	.	.	16e-\LL	.	16e-/LL	.	8ee-\L	.	4E-\	.	.	.	.	.	.	.	.	.
.	.	.	16e-\	.	16e-/	.	.	.	.	.	.	.	.	.	.	.	.	.
8E-\	.	.	16e-\	.	16e-/	.	8b-\	.	.	.	.	.	.	.	.	.	.	.
.	.	.	16e-\JJ	.	16e-/JJ	.	.	.	.	.	.	.	.	.	.	.	.	.
!	!	!	!	!	!	!	!	!	!LO:TUP:a:problem=klamra łukowa	!	!	!	!	!	!	!	!	!
8E-\	.	.	16g\LL	.	16g/LL	.	8ee-\	.	12E-\L	.	.	.	.	.	.	.	.	.
.	.	.	16g\	.	16g/	.	.	.	.	.	.	.	.	.	.	.	.	.
.	.	.	.	.	.	.	.	.	12E-\	.	.	.	.	.	.	.	.	.
8E-\J	.	.	16g\	.	16g/	.	8b-\J	.	.	.	.	.	.	.	.	.	.	.
.	.	.	.	.	.	.	.	.	12E-\J	.	.	.	.	.	.	.	.	.
.	.	.	16g\JJ	.	16g/JJ	.	.	.	.	.	.	.	.	.	.	.	.	.
*	*	*	*Xtremolo	*	*Xtremolo	*	*	*	*	*	*	*	*	*	*	*	*	*
=29	=29	=29	=29	=29	=29	=29	=29	=29	=29	=29	=29	=29	=29	=29	=29	=29	=29	=29
*	*	*	*	*	*	*	*tremolo	*	*	*	*	*	*	*	*	*	*	*
!	!	!	!	!	!	!	!	!	!LO:TX:a:t=|:problem	!	!	!	!	!	!	!	!	!
8E-\L	.	.	4.e-\	.	4.G/ 4.e-/	.	16ee-\LL	.	4E-\	.	1e-	.	1g	.	1ee-	.	1gg	.
.	.	.	.	.	.	.	16ee-\	.	.	.	.	.	.	.	.	.	.	.
8E-\	.	.	.	.	.	.	16ee-\	.	.	.	.	.	.	.	.	.	.	.
.	.	.	.	.	.	.	16ee-\JJ	.	.	.	.	.	.	.	.	.	.	.
!	!	!	!	!	!	!	!	!	!LO:TX:a:t=|:problem	!	!	!	!	!	!	!	!	!
8E-\	.	.	.	.	.	.	16b-\LL	.	4E-\	.	.	.	.	.	.	.	.	.
.	.	.	.	.	.	.	16b-\	.	.	.	.	.	.	.	.	.	.	.
8E-\J	.	.	8B-\	.	8B-/	.	16b-\	.	.	.	.	.	.	.	.	.	.	.
.	.	.	.	.	.	.	16b-\JJ	.	.	.	.	.	.	.	.	.	.	.
!	!	!	!	!	!	!	!	!	!LO:TX:a:t=|:problem	!	!	!	!	!	!	!	!	!
8E-\L	.	.	8e-\L	.	8e-/L	.	16ee-\LL	.	4E-\	.	.	.	.	.	.	.	.	.
.	.	.	.	.	.	.	16ee-\	.	.	.	.	.	.	.	.	.	.	.
8E-\	.	.	8B-\	.	8B-/	.	16ee-\	.	.	.	.	.	.	.	.	.	.	.
.	.	.	.	.	.	.	16ee-\JJ	.	.	.	.	.	.	.	.	.	.	.
!	!	!	!	!	!	!	!	!	!LO:TX:a:t=|:problem	!	!	!	!	!	!	!	!	!
8E-\	.	.	8e-\	.	8e-/	.	16gg\LL	.	4E-\	.	.	.	.	.	.	.	.	.
.	.	.	.	.	.	.	16gg\	.	.	.	.	.	.	.	.	.	.	.
8E-\J	.	.	8B-\J	.	8B-/J	.	16gg\	.	.	.	.	.	.	.	.	.	.	.
.	.	.	.	.	.	.	16gg\JJ	.	.	.	.	.	.	.	.	.	.	.
*	*	*	*	*	*	*	*Xtremolo	*	*	*	*	*	*	*	*	*	*	*
!LO:LB:g=original	!	!	!	!	!	!	!LO:LB:g=original	!	!	!	!	!	!	!	!	!	!	!
=30	=30	=30	=30	=30	=30	=30	=30	=30	=30	=30	=30	=30	=30	=30	=30	=30	=30	=30
*	*	*	*tremolo	*	*tremolo	*	*	*	*	*	*	*	*	*	*	*	*	*
8BB-/L	.	.	16f\LL	.	16f/LL	.	4.aa-\	.	4BB-/	.	1B- 1f	.	1f	.	1ff	.	1aa-	.
.	.	.	16f\	.	16f/	.	.	.	.	.	.	.	.	.	.	.	.	.
8BB-/	.	.	16f\	.	16f/	.	.	.	.	.	.	.	.	.	.	.	.	.
.	.	.	16f\JJ	.	16f/JJ	.	.	.	.	.	.	.	.	.	.	.	.	.
!	!	!	!	!	!	!	!	!	!LO:TUP:b:problem=klamra łukowa	!	!	!	!	!	!	!	!	!
8BB-/	.	.	16B-\LL	.	16B-/LL	.	.	.	12BB-/L	.	.	.	.	.	.	.	.	.
.	.	.	16B-\	.	16B-/	.	.	.	.	.	.	.	.	.	.	.	.	.
.	.	.	.	.	.	.	.	.	12BB-/	.	.	.	.	.	.	.	.	.
8BB-/J	.	.	16B-\	.	16B-/	.	8ff\	.	.	.	.	.	.	.	.	.	.	.
.	.	.	.	.	.	.	.	.	12BB-/J	.	.	.	.	.	.	.	.	.
.	.	.	16B-\JJ	.	16B-/JJ	.	.	.	.	.	.	.	.	.	.	.	.	.
8BB-/L	.	.	16f\LL	.	16f/LL	.	8aa-\L	.	4BB-/	.	.	.	.	.	.	.	.	.
.	.	.	16f\	.	16f/	.	.	.	.	.	.	.	.	.	.	.	.	.
8BB-/	.	.	16f\	.	16f/	.	8ff\	.	.	.	.	.	.	.	.	.	.	.
.	.	.	16f\JJ	.	16f/JJ	.	.	.	.	.	.	.	.	.	.	.	.	.
!	!	!	!	!	!	!	!	!	!LO:TUP:b:problem=klamra łukowa	!	!	!	!	!	!	!	!	!
8BB-/	.	.	16a-\LL	.	16a-/LL	.	8aa-\	.	12BB-/L	.	.	.	.	.	.	.	.	.
.	.	.	16a-\	.	16a-/	.	.	.	.	.	.	.	.	.	.	.	.	.
.	.	.	.	.	.	.	.	.	12BB-/	.	.	.	.	.	.	.	.	.
8BB-/J	.	.	16a-\	.	16a-/	.	8ff\J	.	.	.	.	.	.	.	.	.	.	.
.	.	.	.	.	.	.	.	.	12BB-/J	.	.	.	.	.	.	.	.	.
.	.	.	16a-\JJ	.	16a-/JJ	.	.	.	.	.	.	.	.	.	.	.	.	.
*	*	*	*Xtremolo	*	*Xtremolo	*	*	*	*	*	*	*	*	*	*	*	*	*
=31	=31	=31	=31	=31	=31	=31	=31	=31	=31	=31	=31	=31	=31	=31	=31	=31	=31	=31
*	*	*	*	*	*	*	*tremolo	*	*	*	*	*	*	*	*	*	*	*
8BB-/L	.	.	4.f\	.	4.f/	.	16aa-\LL	.	4BB-/	.	1B- 1f	.	1f	.	1ff	.	1aa-	.
.	.	.	.	.	.	.	16aa-\	.	.	.	.	.	.	.	.	.	.	.
8BB-/	.	.	.	.	.	.	16aa-\	.	.	.	.	.	.	.	.	.	.	.
.	.	.	.	.	.	.	16aa-\JJ	.	.	.	.	.	.	.	.	.	.	.
8BB-/	.	.	.	.	.	.	16ff\LL	.	4BB-/	.	.	.	.	.	.	.	.	.
.	.	.	.	.	.	.	16ff\	.	.	.	.	.	.	.	.	.	.	.
8BB-/J	.	.	8B-\	.	8B-/	.	16ff\	.	.	.	.	.	.	.	.	.	.	.
.	.	.	.	.	.	.	16ff\JJ	.	.	.	.	.	.	.	.	.	.	.
8BB-/L	.	.	8f\L	.	8f/L	.	16dd\LL	.	4BB-/	.	.	.	.	.	.	.	.	.
.	.	.	.	.	.	.	16dd\	.	.	.	.	.	.	.	.	.	.	.
8BB-/	.	.	8B-\	.	8B-/	.	16dd\	.	.	.	.	.	.	.	.	.	.	.
.	.	.	.	.	.	.	16dd\JJ	.	.	.	.	.	.	.	.	.	.	.
8BB-/	.	.	8f\	.	8f/	.	16b-\LL	.	4BB-/	.	.	.	.	.	.	.	.	.
.	.	.	.	.	.	.	16b-\	.	.	.	.	.	.	.	.	.	.	.
8BB-/J	.	.	8B-\J	.	8B-/J	.	16b-\	.	.	.	.	.	.	.	.	.	.	.
.	.	.	.	.	.	.	16b-\JJ	.	.	.	.	.	.	.	.	.	.	.
*	*	*	*	*	*	*	*Xtremolo	*	*	*	*	*	*	*	*	*	*	*
!	!	!	!LO:LB:g=original	!	!	!	!	!	!LO:LB:g=original	!	!LO:LB:g=original	!	!	!	!	!	!	!
=32	=32	=32	=32	=32	=32	=32	=32	=32	=32	=32	=32	=32	=32	=32	=32	=32	=32	=32
*	*	*	*tremolo	*	*tremolo	*	*	*	*	*	*	*	*	*	*	*	*	*
8E-\L	.	.	16e-\LL	.	16G/ 16e-LL/	.	4.ee-\	.	4E-\	.	1e-	.	1g	.	1ee-	.	1gg	.
.	.	.	16e-\	.	16G/ 16e-/	.	.	.	.	.	.	.	.	.	.	.	.	.
8E-\	.	.	16e-\	.	16G/ 16e-/	.	.	.	.	.	.	.	.	.	.	.	.	.
.	.	.	16e-\JJ	.	16G/ 16e-JJ/	.	.	.	.	.	.	.	.	.	.	.	.	.
!	!	!	!	!	!	!	!	!	!LO:TUP:a:problem=klamra łukowa	!	!	!	!	!	!	!	!	!
8E-\	.	.	16B-\LL	.	16B-/LL	.	.	.	12E-\L	.	.	.	.	.	.	.	.	.
.	.	.	16B-\	.	16B-/	.	.	.	.	.	.	.	.	.	.	.	.	.
.	.	.	.	.	.	.	.	.	12E-\	.	.	.	.	.	.	.	.	.
8E-\J	.	.	16B-\	.	16B-/	.	8b-\	.	.	.	.	.	.	.	.	.	.	.
.	.	.	.	.	.	.	.	.	12E-\J	.	.	.	.	.	.	.	.	.
.	.	.	16B-\JJ	.	16B-/JJ	.	.	.	.	.	.	.	.	.	.	.	.	.
8E-\L	.	.	16e-\LL	.	16e-/LL	.	8ee-\L	.	4E-\	.	.	.	.	.	.	.	.	.
.	.	.	16e-\	.	16e-/	.	.	.	.	.	.	.	.	.	.	.	.	.
8E-\	.	.	16e-\	.	16e-/	.	8b-\	.	.	.	.	.	.	.	.	.	.	.
.	.	.	16e-\JJ	.	16e-/JJ	.	.	.	.	.	.	.	.	.	.	.	.	.
!	!	!	!	!	!	!	!	!	!LO:TUP:a:problem=klamra łukowa	!	!	!	!	!	!	!	!	!
8E-\	.	.	16g\LL	.	16g/LL	.	8ee-\	.	12E-\L	.	.	.	.	.	.	.	.	.
.	.	.	16g\	.	16g/	.	.	.	.	.	.	.	.	.	.	.	.	.
.	.	.	.	.	.	.	.	.	12E-\	.	.	.	.	.	.	.	.	.
8E-\J	.	.	16g\	.	16g/	.	8b-\J	.	.	.	.	.	.	.	.	.	.	.
.	.	.	.	.	.	.	.	.	12E-\J	.	.	.	.	.	.	.	.	.
.	.	.	16g\JJ	.	16g/JJ	.	.	.	.	.	.	.	.	.	.	.	.	.
*	*	*	*Xtremolo	*	*Xtremolo	*	*	*	*	*	*	*	*	*	*	*	*	*
=33	=33	=33	=33	=33	=33	=33	=33	=33	=33	=33	=33	=33	=33	=33	=33	=33	=33	=33
*	*	*	*	*	*	*	*tremolo	*	*	*	*	*	*	*	*	*	*	*
8E-\L	.	.	4.G\ 4.e-\	.	4.G/ 4.e-/	.	16ee-\LL	.	4E-\	.	1e-	.	1g	.	1ee-	.	1gg	.
.	.	.	.	.	.	.	16ee-\	.	.	.	.	.	.	.	.	.	.	.
8E-\	.	.	.	.	.	.	16ee-\	.	.	.	.	.	.	.	.	.	.	.
.	.	.	.	.	.	.	16ee-\JJ	.	.	.	.	.	.	.	.	.	.	.
8E-\	.	.	.	.	.	.	16b-\LL	.	4E-\	.	.	.	.	.	.	.	.	.
.	.	.	.	.	.	.	16b-\	.	.	.	.	.	.	.	.	.	.	.
8E-\J	.	.	8B-\	.	8B-/	.	16b-\	.	.	.	.	.	.	.	.	.	.	.
.	.	.	.	.	.	.	16b-\JJ	.	.	.	.	.	.	.	.	.	.	.
8E-\L	.	.	8e-\L	.	8G/L 8e-/	.	16ee-\LL	.	4E-\	.	.	.	.	.	.	.	.	.
.	.	.	.	.	.	.	16ee-\	.	.	.	.	.	.	.	.	.	.	.
8E-\	.	.	8B-\	.	8B-/	.	16ee-\	.	.	.	.	.	.	.	.	.	.	.
.	.	.	.	.	.	.	16ee-\JJ	.	.	.	.	.	.	.	.	.	.	.
8E-\	.	.	8e-\	.	8G/ 8e-/	.	16gg\LL	.	4E-\	.	.	.	.	.	.	.	.	.
.	.	.	.	.	.	.	16gg\	.	.	.	.	.	.	.	.	.	.	.
8E-\J	.	.	8B-\J	.	8B-/J	.	16gg\	.	.	.	.	.	.	.	.	.	.	.
.	.	.	.	.	.	.	16gg\JJ	.	.	.	.	.	.	.	.	.	.	.
*	*	*	*	*	*	*	*Xtremolo	*	*	*	*	*	*	*	*	*	*	*
!	!	!	!	!	!LO:LB:g=original	!	!	!	!	!	!	!	!LO:LB:g=original	!	!	!	!LO:LB:g=original	!
=34	=34	=34	=34	=34	=34	=34	=34	=34	=34	=34	=34	=34	=34	=34	=34	=34	=34	=34
*	*	*	*tremolo	*	*tremolo	*	*	*	*	*	*	*	*	*	*	*	*	*
8BB-/L	.	.	16f\LL	.	16f/LL	.	4.aa-\	.	4BB-/	.	1B- 1f	.	1f	.	1ff	.	1aa-	.
.	.	.	16f\	.	16f/	.	.	.	.	.	.	.	.	.	.	.	.	.
8BB-/	.	.	16f\	.	16f/	.	.	.	.	.	.	.	.	.	.	.	.	.
.	.	.	16f\JJ	.	16f/JJ	.	.	.	.	.	.	.	.	.	.	.	.	.
!	!	!	!	!	!	!	!	!	!LO:TUP:b:problem=klamra łukowa	!	!	!	!	!	!	!	!	!
8BB-/	.	.	16B-\LL	.	16B-/LL	.	.	.	12BB-/L	.	.	.	.	.	.	.	.	.
.	.	.	16B-\	.	16B-/	.	.	.	.	.	.	.	.	.	.	.	.	.
.	.	.	.	.	.	.	.	.	12BB-/	.	.	.	.	.	.	.	.	.
8BB-/J	.	.	16B-\	.	16B-/	.	8ff\	.	.	.	.	.	.	.	.	.	.	.
.	.	.	.	.	.	.	.	.	12BB-/J	.	.	.	.	.	.	.	.	.
.	.	.	16B-\JJ	.	16B-/JJ	.	.	.	.	.	.	.	.	.	.	.	.	.
8BB-/L	.	.	16f\LL	.	16f/LL	.	8aa-\L	.	4BB-/	.	.	.	.	.	.	.	.	.
.	.	.	16f\	.	16f/	.	.	.	.	.	.	.	.	.	.	.	.	.
8BB-/	.	.	16f\	.	16f/	.	8ff\	.	.	.	.	.	.	.	.	.	.	.
.	.	.	16f\JJ	.	16f/JJ	.	.	.	.	.	.	.	.	.	.	.	.	.
!	!	!	!	!	!	!	!	!	!LO:TUP:b:problem=klamra łukowa	!	!	!	!	!	!	!	!	!
8BB-/	.	.	16a-\LL	.	16a-/LL	.	8aa-\	.	12BB-/L	.	.	.	.	.	.	.	.	.
.	.	.	16a-\	.	16a-/	.	.	.	.	.	.	.	.	.	.	.	.	.
.	.	.	.	.	.	.	.	.	12BB-/	.	.	.	.	.	.	.	.	.
8BB-/J	.	.	16a-\	.	16a-/	.	8ff\J	.	.	.	.	.	.	.	.	.	.	.
.	.	.	.	.	.	.	.	.	12BB-/J	.	.	.	.	.	.	.	.	.
.	.	.	16a-\JJ	.	16a-/JJ	.	.	.	.	.	.	.	.	.	.	.	.	.
*	*	*	*Xtremolo	*	*Xtremolo	*	*	*	*	*	*	*	*	*	*	*	*	*
=35	=35	=35	=35	=35	=35	=35	=35	=35	=35	=35	=35	=35	=35	=35	=35	=35	=35	=35
*	*	*	*	*	*	*	*tremolo	*	*	*	*	*	*	*	*	*	*	*
8BB-/L	.	.	4.f\	.	4.f/	.	16aa-\LL	.	4BB-/	.	1B- 1f	.	1f	.	1ff	.	1aa-	.
.	.	.	.	.	.	.	16aa-\	.	.	.	.	.	.	.	.	.	.	.
8BB-/	.	.	.	.	.	.	16aa-\	.	.	.	.	.	.	.	.	.	.	.
.	.	.	.	.	.	.	16aa-\JJ	.	.	.	.	.	.	.	.	.	.	.
8BB-/	.	.	.	.	.	.	16ff\LL	.	4BB-/	.	.	.	.	.	.	.	.	.
.	.	.	.	.	.	.	16ff\	.	.	.	.	.	.	.	.	.	.	.
8BB-/J	.	.	8B-\	.	8B-/	.	16ff\	.	.	.	.	.	.	.	.	.	.	.
.	.	.	.	.	.	.	16ff\JJ	.	.	.	.	.	.	.	.	.	.	.
8BB-/L	.	.	8f\L	.	8f/L	.	16dd\LL	.	4BB-/	.	.	.	.	.	.	.	.	.
.	.	.	.	.	.	.	16dd\	.	.	.	.	.	.	.	.	.	.	.
8BB-/	.	.	8B-\	.	8B-/	.	16dd\	.	.	.	.	.	.	.	.	.	.	.
.	.	.	.	.	.	.	16dd\JJ	.	.	.	.	.	.	.	.	.	.	.
8BB-/	.	.	8f\	.	8f/	.	16b-\LL	.	4BB-/	.	.	.	.	.	.	.	.	.
.	.	.	.	.	.	.	16b-\	.	.	.	.	.	.	.	.	.	.	.
8BB-/J	.	.	8B-\J	.	8B-/J	.	16b-\	.	.	.	.	.	.	.	.	.	.	.
.	.	.	.	.	.	.	16b-\JJ	.	.	.	.	.	.	.	.	.	.	.
=36	=36	=36	=36	=36	=36	=36	=36	=36	=36	=36	=36	=36	=36	=36	=36	=36	=36	=36
*	*	*	*tremolo	*	*tremolo	*	*	*	*	*	*	*	*	*	*	*	*	*
8BB-/L	.	.	16a-\LL	.	16a-/LL	.	16a-/LL	.	4BB-/	.	4B-/	.	4f\	.	4ff\	.	4aa-\	.
.	.	.	16a-\	.	16a-/	.	16a-/	.	.	.	.	.	.	.	.	.	.	.
8BB-/	.	.	16a-\	.	16a-/	.	16a-/	.	.	.	.	.	.	.	.	.	.	.
.	.	.	16a-\JJ	.	16a-/JJ	.	16a-/JJ	.	.	.	.	.	.	.	.	.	.	.
8BB-/	.	.	16f\LL	.	16f/LL	.	16f/LL	.	4BB-/	.	4B-/	.	4f\	.	4ff\	.	4aa-\	.
.	.	.	16f\	.	16f/	.	16f/	.	.	.	.	.	.	.	.	.	.	.
8BB-/J	.	.	16f\	.	16f/	.	16f/	.	.	.	.	.	.	.	.	.	.	.
.	.	.	16f\JJ	.	16f/JJ	.	16f/JJ	.	.	.	.	.	.	.	.	.	.	.
8BB-/L	.	.	16d\LL	.	16d/LL	.	16d/LL	.	4BB-/	.	4B-/	.	4f\	.	4ff\	.	4aa-\	.
.	.	.	16d\	.	16d/	.	16d/	.	.	.	.	.	.	.	.	.	.	.
8BB-/	.	.	16d\	.	16d/	.	16d/	.	.	.	.	.	.	.	.	.	.	.
.	.	.	16d\JJ	.	16d/JJ	.	16d/JJ	.	.	.	.	.	.	.	.	.	.	.
8BB-/	.	.	16B-\LL	.	16B-/LL	.	16B-/LL	.	4BB-/	.	4B-/	.	4f\	.	4ff\	.	4aa-\	.
.	.	.	16B-\	.	16B-/	.	16B-/	.	.	.	.	.	.	.	.	.	.	.
8BB-/J	.	.	16B-\	.	16B-/	.	16B-/	.	.	.	.	.	.	.	.	.	.	.
.	.	.	16B-\JJ	.	16B-/JJ	.	16B-/JJ	.	.	.	.	.	.	.	.	.	.	.
*	*	*	*Xtremolo	*	*Xtremolo	*	*Xtremolo	*	*	*	*	*	*	*	*	*	*	*
=37	=37	=37	=37	=37	=37	=37	=37	=37	=37	=37	=37	=37	=37	=37	=37	=37	=37	=37
!LO:TX:a:t=11	!	!	!LO:TX:a:t=1	!	!LO:TX:a:t=11	!	!LO:TX:a:t=7	!	!LO:TX:a:t=11	!	!LO:TX:a:t=11	!	!LO:TX:a:t=11	!	!LO:TX:a:t=3	!	!LO:TX:a:t=3	!
1r	.	.	1r	.	1r	.	00r	.	1r	.	1r	.	1r	.	0r	.	0r	.
=38-	=38	=38	=38	=38	=38-	=38	=38-	=38	=38-	=38	=38-	=38	=38-	=38	=38-	=38	=38-	=38
*	*	*	*tremolo	*	*	*	*	*	*	*	*	*	*	*	*	*	*	*
!	!	!	!LO:TX:a:t=Solo	!LO:DY:b:rj:t=pia	!	!	!	!	!	!	!	!	!	!	!	!	!	!
1r	.	.	8B-/L	p	1r	.	.	.	1r	.	1r	.	1r	.	.	.	.	.
.	.	.	8B-/	.	.	.	.	.	.	.	.	.	.	.	.	.	.	.
.	.	.	8B-/	.	.	.	.	.	.	.	.	.	.	.	.	.	.	.
.	.	.	8B-/J	.	.	.	.	.	.	.	.	.	.	.	.	.	.	.
*	*	*	*Xtremolo	*	*	*	*	*	*	*	*	*	*	*	*	*	*	*
!	!	!	!LO:TX:b:t=|:problem	!	!	!	!	!	!	!	!	!	!	!	!	!	!	!
.	.	.	8B-/L	.	.	.	.	.	.	.	.	.	.	.	.	.	.	.
!	!	!	!LO:TX:b:t=|:problem	!	!	!	!	!	!	!	!	!	!	!	!	!	!	!
.	.	.	8B-/	.	.	.	.	.	.	.	.	.	.	.	.	.	.	.
!	!	!	!LO:TX:b:t=|:problem	!	!	!	!	!	!	!	!	!	!	!	!	!	!	!
.	.	.	8B-/	.	.	.	.	.	.	.	.	.	.	.	.	.	.	.
!	!	!	!LO:TX:b:t=|:problem	!	!	!	!	!	!	!	!	!	!	!	!	!	!	!
.	.	.	8B-/J	.	.	.	.	.	.	.	.	.	.	.	.	.	.	.
=39-	=39	=39	=39	=39	=39-	=39	=39-	=39	=39-	=39	=39-	=39	=39-	=39	=39-	=39	=39-	=39
*	*	*	*tremolo	*	*	*	*	*	*	*	*	*	*	*	*	*	*	*
1r	.	.	8B-/L	.	1r	.	.	.	1r	.	1r	.	1r	.	1r	.	1r	.
.	.	.	8B-/	.	.	.	.	.	.	.	.	.	.	.	.	.	.	.
.	.	.	8B-/	.	.	.	.	.	.	.	.	.	.	.	.	.	.	.
.	.	.	8B-/J	.	.	.	.	.	.	.	.	.	.	.	.	.	.	.
.	.	.	8B-/L	.	.	.	.	.	.	.	.	.	.	.	.	.	.	.
.	.	.	8B-/	.	.	.	.	.	.	.	.	.	.	.	.	.	.	.
.	.	.	8B-/	.	.	.	.	.	.	.	.	.	.	.	.	.	.	.
.	.	.	8B-/J	.	.	.	.	.	.	.	.	.	.	.	.	.	.	.
!	!	!	!	!	!	!	!	!	!	!	!	!	!	!	!LO:LB:g=original	!	!	!
=40-	=40	=40	=40	=40	=40-	=40	=40-	=40	=40-	=40	=40-	=40	=40-	=40	=40	=40	=40	=40
!	!	!	!	!	!	!	!	!	!	!	!	!	!	!	!LO:TX:a:t=Solo	!	!LO:TX:a:t=Solo:rj	!
1r	.	.	8B-/L	.	1r	.	.	.	1r	.	1r	.	1r	.	2b-\	.	(>2bb-\	.
.	.	.	8B-/	.	.	.	.	.	.	.	.	.	.	.	.	.	.	.
.	.	.	8B-/	.	.	.	.	.	.	.	.	.	.	.	.	.	.	.
.	.	.	8B-/J	.	.	.	.	.	.	.	.	.	.	.	.	.	.	.
.	.	.	8B-/L	.	.	.	.	.	.	.	.	.	.	.	(>4cc\	.	4aa\	.
.	.	.	8B-/	.	.	.	.	.	.	.	.	.	.	.	.	.	.	.
.	.	.	8B-/	.	.	.	.	.	.	.	.	.	.	.	4dd\)	.	4aa-X\)	.
.	.	.	8B-/J	.	.	.	.	.	.	.	.	.	.	.	.	.	.	.
=41-	=41	=41	=41	=41	=41-	=41	=41-	=41	=41-	=41	=41-	=41	=41-	=41	=41	=41	=41	=41
1r	.	.	8B-/L	.	1r	.	0r	.	1r	.	1r	.	1r	.	2ee-\	.	(>2gg\	.
.	.	.	8B-/	.	.	.	.	.	.	.	.	.	.	.	.	.	.	.
.	.	.	8B-/	.	.	.	.	.	.	.	.	.	.	.	.	.	.	.
.	.	.	8B-/J	.	.	.	.	.	.	.	.	.	.	.	.	.	.	.
.	.	.	8B-/L	.	.	.	.	.	.	.	.	.	.	.	4ff\	.	4ff\	.
.	.	.	8B-/	.	.	.	.	.	.	.	.	.	.	.	.	.	.	.
*	*	*	*	*	*	*	*	*	*	*	*	*	*	*	*head:invis	*	*	*
.	.	.	8B-/	.	.	.	.	.	.	.	.	.	.	.	4gg\	.	4ee-\)	.
.	.	.	8B-/J	.	.	.	.	.	.	.	.	.	.	.	.	.	.	.
*	*	*	*	*	*	*	*	*	*	*	*	*	*	*	*Xhead	*	*	*
=42-	=42	=42	=42	=42	=42-	=42	=42-	=42	=42-	=42	=42-	=42	=42-	=42	=42	=42	=42	=42
!	!	!	!	!	!	!	!	!	!	!	!	!	!	!	!LO:TX:a:t=3	!	!	!
1r	.	.	8B-/L	.	1r	.	.	.	1r	.	1r	.	1r	.	0r	.	8.dd\L	.
.	.	.	8B-/	.	.	.	.	.	.	.	.	.	.	.	.	.	.	.
.	.	.	.	.	.	.	.	.	.	.	.	.	.	.	.	.	16cc\K	.
.	.	.	8B-/	.	.	.	.	.	.	.	.	.	.	.	.	.	8.dd\	.
.	.	.	8B-/J	.	.	.	.	.	.	.	.	.	.	.	.	.	.	.
.	.	.	.	.	.	.	.	.	.	.	.	.	.	.	.	.	16ee-\Jk	.
.	.	.	8B-/L	.	.	.	.	.	.	.	.	.	.	.	.	.	8.ff\L	.
.	.	.	8B-/	.	.	.	.	.	.	.	.	.	.	.	.	.	.	.
.	.	.	.	.	.	.	.	.	.	.	.	.	.	.	.	.	16b-\K	.
.	.	.	8B-/	.	.	.	.	.	.	.	.	.	.	.	.	.	8.cc\	.
.	.	.	8B-/J	.	.	.	.	.	.	.	.	.	.	.	.	.	.	.
.	.	.	.	.	.	.	.	.	.	.	.	.	.	.	.	.	16dd\Jk	.
=43-	=43	=43	=43	=43	=43-	=43	=43-	=43	=43-	=43	=43-	=43	=43-	=43	=43-	=43	=43	=43
1r	.	.	8B-/L	.	1r	.	1r	.	1r	.	1r	.	1r	.	.	.	8.ee-\L	.
.	.	.	8B-/	.	.	.	.	.	.	.	.	.	.	.	.	.	.	.
.	.	.	.	.	.	.	.	.	.	.	.	.	.	.	.	.	16ff\Jk	.
*	*	*	*	*	*	*	*	*	*	*	*	*	*	*	*	*	*head:invis	*
.	.	.	8B-/	.	.	.	.	.	.	.	.	.	.	.	.	.	4gg\	.
.	.	.	8B-/J	.	.	.	.	.	.	.	.	.	.	.	.	.	.	.
*	*	*	*	*	*	*	*	*	*	*	*	*	*	*	*	*	*Xhead	*
.	.	.	8B-/L	.	.	.	.	.	.	.	.	.	.	.	.	.	2r	.
.	.	.	8B-/	.	.	.	.	.	.	.	.	.	.	.	.	.	.	.
.	.	.	8B-/	.	.	.	.	.	.	.	.	.	.	.	.	.	.	.
.	.	.	8B-/J	.	.	.	.	.	.	.	.	.	.	.	.	.	.	.
!	!	!	!	!	!	!	!LO:LB:g=original	!	!	!	!	!	!	!	!	!	!	!
=44-	=44	=44	=44	=44	=44-	=44	=44	=44	=44-	=44	=44-	=44	=44-	=44	=44-	=44	=44	=44
!	!	!	!	!	!	!	!LO:TX:a:t=Solo	!LO:DY:b:t=pia	!	!	!	!	!	!	!	!	!LO:TX:a:t=1	!
1r	.	.	8B-/L	.	1r	.	8.e-/L	p	1r	.	1r	.	1r	.	1r	.	1r	.
.	.	.	8B-/	.	.	.	.	.	.	.	.	.	.	.	.	.	.	.
.	.	.	.	.	.	.	16f/Jk	.	.	.	.	.	.	.	.	.	.	.
.	.	.	8B-/	.	.	.	4g/	.	.	.	.	.	.	.	.	.	.	.
.	.	.	8B-/J	.	.	.	.	.	.	.	.	.	.	.	.	.	.	.
.	.	.	8B-/L	.	.	.	2r	.	.	.	.	.	.	.	.	.	.	.
.	.	.	8B-/	.	.	.	.	.	.	.	.	.	.	.	.	.	.	.
.	.	.	8B-/	.	.	.	.	.	.	.	.	.	.	.	.	.	.	.
.	.	.	8B-/J	.	.	.	.	.	.	.	.	.	.	.	.	.	.	.
!	!	!	!	!	!	!	!	!	!	!	!	!	!	!	!	!	!LO:LB:g=original	!
=45-	=45	=45	=45	=45	=45-	=45	=45	=45	=45-	=45	=45-	=45	=45-	=45	=45	=45	=45	=45
!	!	!	!	!	!	!	!LO:TX:a:t=3	!	!	!	!	!	!	!	!	!	!	!
1r	.	.	8B-/L	.	1r	.	0r	.	1r	.	1r	.	1r	.	(>2b-\	.	(>2bb-\	.
.	.	.	8B-/	.	.	.	.	.	.	.	.	.	.	.	.	.	.	.
.	.	.	8B-/	.	.	.	.	.	.	.	.	.	.	.	.	.	.	.
.	.	.	8B-/J	.	.	.	.	.	.	.	.	.	.	.	.	.	.	.
.	.	.	8B-/L	.	.	.	.	.	.	.	.	.	.	.	4cc\)	.	4aa\	.
.	.	.	8B-/	.	.	.	.	.	.	.	.	.	.	.	.	.	.	.
.	.	.	8B-/	.	.	.	.	.	.	.	.	.	.	.	4dd\	.	4aa-X\)	.
.	.	.	8B-/J	.	.	.	.	.	.	.	.	.	.	.	.	.	.	.
*	*	*	*Xtremolo	*	*	*	*	*	*	*	*	*	*	*	*	*	*	*
=46-	=46	=46	=46	=46	=46-	=46	=46-	=46	=46-	=46	=46-	=46	=46-	=46	=46	=46	=46	=46
!	!	!	!LO:TX:t=P:problem=zbyt mała liczba powtórzeń (haplografia)	!	!	!	!	!	!	!	!	!	!	!	!	!	!	!
1r	.	.	1ryy	.	1r	.	.	.	1r	.	1r	.	1r	.	2ee-\	.	2gg\	.
.	.	.	.	.	.	.	.	.	.	.	.	.	.	.	.	.	8qqaa-/L	.
.	.	.	.	.	.	.	.	.	.	.	.	.	.	.	.	.	8qqgg/J	.
.	.	.	.	.	.	.	.	.	.	.	.	.	.	.	4ff\	.	4ff\	.
*	*	*	*	*	*	*	*	*	*	*	*	*	*	*	*head:invis	*	*	*
.	.	.	.	.	.	.	.	.	.	.	.	.	.	.	4gg\	.	4eeX\	.
*	*	*	*	*	*	*	*	*	*	*	*	*	*	*	*Xhead	*	*	*
=47-	=47	=47	=47	=47	=47-	=47	=47-	=47	=47-	=47	=47-	=47	=47-	=47	=47	=47	=47	=47
1r	.	.	1ryy	.	1r	.	1r	.	1r	.	1r	.	1r	.	2ff\	.	(>8ff\L	.
.	.	.	.	.	.	.	.	.	.	.	.	.	.	.	.	.	8ccc\	.
.	.	.	.	.	.	.	.	.	.	.	.	.	.	.	.	.	8aa-\)	.
.	.	.	.	.	.	.	.	.	.	.	.	.	.	.	.	.	8ff\J	.
.	.	.	.	.	.	.	.	.	.	.	.	.	.	.	4ee-\	.	4ee-X\	.
.	.	.	.	.	.	.	.	.	.	.	.	.	.	.	4dd\	.	4dd\	.
=48	=48	=48	=48	=48	=48	=48	=48	=48	=48	=48	=48	=48	=48	=48	=48	=48	=48	=48
*head:invis	*	*	*	*	*	*	*	*	*	*	*	*	*	*	*	*	*	*
!	!	!	!	!	!LO:TX:t=P:problem=all\right&colon; global	!	!	!LO:DY:b:rj:t=for	!	!	!	!LO:DY:b:rj:t=for	!	!LO:DY:b:rj:t=for	!	!	!	!
8e-\L	.	.	16e-\LL	.	16ee-\LL	.	16ee-\LL	f	8E-\L	.	2G/	f	2e-\	f	2ee-\	.	2ee-\	.
.	.	.	16e-\	.	16ee-\	.	16ee-\	.	.	.	.	.	.	.	.	.	.	.
*Xhead	*	*	*	*	*	*	*	*	*	*	*	*	*	*	*	*	*	*
8B-\	.	.	16B-\	.	16b-\	.	16b-\	.	16E-\L	.	.	.	.	.	.	.	.	.
.	.	.	16B-\JJ	.	16b-\JJ	.	16b-\JJ	.	16E-\JJ	.	.	.	.	.	.	.	.	.
8G\	.	.	16G\LL	.	16g\LL	.	16g\LL	.	4E-\	.	.	.	.	.	.	.	.	.
.	.	.	16G\	.	16g\	.	16g\	.	.	.	.	.	.	.	.	.	.	.
8B-\J	.	.	16B-\	.	16b-\	.	16b-\	.	.	.	.	.	.	.	.	.	.	.
.	.	.	16B-\JJ	.	16b-\JJ	.	16b-\JJ	.	.	.	.	.	.	.	.	.	.	.
*head:invis	*	*	*	*	*	*	*	*	*Xtuplet	*	*	*	*	*	*	*	*head:invis	*
8e-\L	.	.	16e-\LL	.	16ee-\LL	.	16ee-\LL	.	12E-\L	.	4G/	.	4e-\	.	4ee-\	.	4gg\	.
.	.	.	16e-\	.	16ee-\	.	16ee-\	.	.	.	.	.	.	.	.	.	.	.
.	.	.	.	.	.	.	.	.	12E-\	.	.	.	.	.	.	.	.	.
*Xhead	*	*	*	*	*	*	*	*	*	*	*	*	*	*	*	*	*	*
8B-\	.	.	16B-\	.	16b-\	.	16b-\	.	.	.	.	.	.	.	.	.	.	.
.	.	.	.	.	.	.	.	.	12E-\J	.	.	.	.	.	.	.	.	.
.	.	.	16B-\JJ	.	16b-\JJ	.	16b-\JJ	.	.	.	.	.	.	.	.	.	.	.
8G\	.	.	16G\LL	.	16g\LL	.	16g\LL	.	4E-\	.	4G/	.	4e-\	.	4ee-\	.	4gg\	.
.	.	.	16G\	.	16g\	.	16g\	.	.	.	.	.	.	.	.	.	.	.
8B-\J	.	.	16B-\	.	16b-\	.	16b-\	.	.	.	.	.	.	.	.	.	.	.
.	.	.	16B-\JJ	.	16b-\JJ	.	16b-\JJ	.	.	.	.	.	.	.	.	.	.	.
*	*	*	*	*	*	*	*	*	*	*	*	*	*	*	*	*	*Xhead	*
!	!	!	!	!	!LO:LB:g=original	!	!	!	!LO:LB:g=original	!	!	!	!	!	!	!	!	!
=49	=49	=49	=49	=49	=49	=49	=49	=49	=49	=49	=49	=49	=49	=49	=49	=49	=49	=49
8E-\L	.	.	16e-\LL	.	16ee-\LL	.	16ee-\LL	.	8E-\L	.	2G/	.	2e-\	.	2ee-\	.	2gg\	.
.	.	.	16e-\	.	16ee-\	.	16ee-\	.	.	.	.	.	.	.	.	.	.	.
8G\	.	.	16g\	.	16gg\	.	16gg\	.	16E-\L	.	.	.	.	.	.	.	.	.
.	.	.	16g\JJ	.	16gg\JJ	.	16gg\JJ	.	16E-\JJ	.	.	.	.	.	.	.	.	.
8B-\	.	.	16b-\LL	.	16bb-\LL	.	16bb-\LL	.	4E-\	.	.	.	.	.	.	.	.	.
.	.	.	16b-\	.	16bb-\	.	16bb-\	.	.	.	.	.	.	.	.	.	.	.
8G\J	.	.	16g\	.	16gg\	.	16gg\	.	.	.	.	.	.	.	.	.	.	.
.	.	.	16g\JJ	.	16gg\JJ	.	16gg\JJ	.	.	.	.	.	.	.	.	.	.	.
*head:invis	*	*	*	*	*	*	*	*	*	*	*	*	*	*	*	*	*head:invis	*
!	!	!	!LO:LB:g=original	!	!	!	!	!	!	!	!	!	!	!	!	!	!	!
8e-\L	.	.	16e-\LL	.	16ee-\LL	.	16ee-\LL	.	8E-\L	.	4G/	.	4e-\	.	4ee-\	.	4gg\	.
.	.	.	16e-\	.	16ee-\	.	16ee-\	.	.	.	.	.	.	.	.	.	.	.
*Xhead	*	*	*	*	*	*	*	*	*	*	*	*	*	*	*	*	*	*
8B-\	.	.	16B-\	.	16b-\	.	16b-\	.	16E-\L	.	.	.	.	.	.	.	.	.
.	.	.	16B-\JJ	.	16b-\JJ	.	16b-\JJ	.	16E-\JJ	.	.	.	.	.	.	.	.	.
8G\	.	.	16G/LL	.	16g\LL	.	16g\LL	.	4E-\	.	4G/	.	4e-\	.	4ee-\	.	4gg\	.
.	.	.	16G/	.	16g\	.	16g\	.	.	.	.	.	.	.	.	.	.	.
8B-\J	.	.	16B-/	.	16b-\	.	16b-\	.	.	.	.	.	.	.	.	.	.	.
.	.	.	16B-/JJ	.	16b-\JJ	.	16b-\JJ	.	.	.	.	.	.	.	.	.	.	.
*Xtremolo	*	*	*	*	*	*	*	*	*	*	*	*	*	*	*	*	*Xhead	*
!LO:LB:g=original	!	!	!	!	!	!	!	!	!	!	!	!	!	!	!	!	!	!
=50	=50	=50	=50	=50	=50	=50	=50	=50	=50	=50	=50	=50	=50	=50	=50	=50	=50	=50
*	*	*	*tremolo	*	*tremolo	*	*tremolo	*	*	*	*	*	*	*	*	*	*	*
8E-\L	.	.	16e-\LL	.	16ee-\LL	.	16ee-\LL	.	8E-\L	.	2G/	.	2e-\	.	2ee-\	.	2gg\	.
.	.	.	16e-\	.	16ee-\	.	16ee-\	.	.	.	.	.	.	.	.	.	.	.
8E-\	.	.	16e-\	.	16ee-\	.	16ee-\	.	16E-\L	.	.	.	.	.	.	.	.	.
.	.	.	16e-\JJ	.	16ee-\JJ	.	16ee-\JJ	.	16E-\JJ	.	.	.	.	.	.	.	.	.
8G\	.	.	16g\LL	.	16gg\LL	.	16gg\LL	.	8E-\L	.	.	.	.	.	.	.	.	.
.	.	.	16g\	.	16gg\	.	16gg\	.	.	.	.	.	.	.	.	.	.	.
8G\J	.	.	16g\	.	16gg\	.	16gg\	.	8E-\J	.	.	.	.	.	.	.	.	.
.	.	.	16g\JJ	.	16gg\JJ	.	16gg\JJ	.	.	.	.	.	.	.	.	.	.	.
*	*	*	*	*	*	*	*	*	*	*	*	*	*	*	*	*	*head:invis	*
!!mixed beam:problem
!LO:TX:t=P:problem=mixed beam	!	!	!	!	!	!	!	!	!	!	!	!	!	!	!	!	!	!
8B-\L	.	.	16b-\LL	.	16bb-\LL	.	16bb-\LL	.	4E-\	.	4G/	.	4e-\	.	4ee-\	.	4gg\	.
.	.	.	16b-\	.	16bb-\	.	16bb-\	.	.	.	.	.	.	.	.	.	.	.
8B-\	.	.	16b-\	.	16bb-\	.	16bb-\	.	.	.	.	.	.	.	.	.	.	.
.	.	.	16b-\JJ	.	16bb-\JJ	.	16bb-\JJ	.	.	.	.	.	.	.	.	.	.	.
!	!	!	!	!	!	!	!	!	!	!	!	!	!	!	!LO:TX:a:t=f	!	!	!
8BB-/	.	.	16B-/LL	.	16b-\LL	.	16b-\LL	.	4E-\	.	4G/	.	4e-\	.	4ee-\	.	4gg\	.
.	.	.	16B-/	.	16b-\	.	16b-\	.	.	.	.	.	.	.	.	.	.	.
8BB-/J	.	.	16B-/	.	16b-\	.	16b-\	.	.	.	.	.	.	.	.	.	.	.
.	.	.	16B-/JJ	.	16b-\JJ	.	16b-\JJ	.	.	.	.	.	.	.	.	.	.	.
*	*	*	*	*	*	*	*	*	*	*	*	*	*	*	*	*	*Xhead	*
!	!	!	!	!	!	!	!	!	!	!	!	!	!	!	!LO:LB:g=original	!	!	!
=51	=51	=51	=51	=51	=51	=51	=51	=51	=51	=51	=51	=51	=51	=51	=51	=51	=51	=51
*tremolo	*	*	*	*	*	*	*	*	*	*	*	*	*	*	*	*	*	*
8E-\L	.	.	16e-\LL	.	16ee-\LL	.	16ee-\LL	.	8E-\L	.	2G/	.	2e-\	.	2ee-\	.	2gg\	.
.	.	.	16e-\	.	16ee-\	.	16ee-\	.	.	.	.	.	.	.	.	.	.	.
8E-\	.	.	16e-\	.	16ee-\	.	16ee-\	.	16E-\L	.	.	.	.	.	.	.	.	.
.	.	.	16e-\JJ	.	16ee-\JJ	.	16ee-\JJ	.	16E-\JJ	.	.	.	.	.	.	.	.	.
8E-\	.	.	16G/LL	.	16g/LL	.	16g/LL	.	8E-\L	.	.	.	.	.	.	.	.	.
.	.	.	16G/	.	16g/	.	16g/	.	.	.	.	.	.	.	.	.	.	.
8E-\J	.	.	16G/	.	16g/	.	16g/	.	8E-\J	.	.	.	.	.	.	.	.	.
.	.	.	16G/JJ	.	16g/JJ	.	16g/JJ	.	.	.	.	.	.	.	.	.	.	.
8BB-/L	.	.	16B-/LL	.	16b-/LL	.	16b-/LL	.	8BB-/L	.	2B-/	.	2f\	.	2dd\	.	2ff\	.
.	.	.	16B-/	.	16b-/	.	16b-/	.	.	.	.	.	.	.	.	.	.	.
8BB-/	.	.	16B-/	.	16b-/	.	16b-/	.	16BB-/L	.	.	.	.	.	.	.	.	.
.	.	.	16B-/JJ	.	16b-/JJ	.	16b-/JJ	.	16BB-/JJ	.	.	.	.	.	.	.	.	.
8BB-/	.	.	16B-/LL	.	16B-/LL	.	16B-/LL	.	8BB-/L	.	.	.	.	.	.	.	.	.
.	.	.	16B-/	.	16B-/	.	16B-/	.	.	.	.	.	.	.	.	.	.	.
8BB-/J	.	.	16B-/	.	16B-/	.	16B-/	.	8BB-/J	.	.	.	.	.	.	.	.	.
.	.	.	16B-/JJ	.	16B-/JJ	.	16B-/JJ	.	.	.	.	.	.	.	.	.	.	.
*	*	*	*Xtremolo	*	*Xtremolo	*	*Xtremolo	*	*	*	*	*	*	*	*	*	*	*
!	!	!	!	!	!	!	!	!	!	!	!LO:LB:g=original	!	!	!	!	!	!	!
=52	=52	=52	=52	=52	=52	=52	=52	=52	=52	=52	=52	=52	=52	=52	=52	=52	=52	=52
*	*	*	*	*	*	*	*	*	*	*	*	*	*	*	*	*	*head:invis	*
!!mixed beam:problem
!	!	!	!LO:TX:t=P:problem=mixed beam	!	!LO:TX:t=P:problem=mixed beam	!	!LO:TX:t=P:problem=mixed beam	!	!	!	!	!	!	!	!	!	!	!
8E-\L	.	.	8E-/L	.	8G/L 8e-/	.	8G/L 8e-/	.	4E-\	.	4e-\	.	4g\	.	4ee-\	.	4gg\	.
8E-\	.	.	8G\ 8e-\	.	8b-\ 8gg\	.	8b-\ 8gg\	.	.	.	.	.	.	.	.	.	.	.
8E-\	.	.	8G\ 8e-\	.	8b-\ 8gg\	.	8b-\ 8gg\	.	4E-\	.	4e-\	.	4g\	.	4ee-\	.	4gg\	.
8E-\J	.	.	8G\J 8e-\	.	8b-\J 8gg\	.	8b-\J 8gg\	.	.	.	.	.	.	.	.	.	.	.
*	*	*	*	*	*2\right	*	*	*	*	*	*	*	*	*	*	*	*	*
*	*	*	*tremolo	*	*tremolo	*	*tremolo	*	*	*	*	*	*	*	*	*	*	*
8E-\L	.	.	8G\ 8e-L\	.	8b-\ 8ggL\	.	8b-\ 8gg\L	.	4E-\	.	4e-\	.	4g\	.	4ee-\	.	4gg\	.
8E-\	.	.	8G\ 8e-\	.	8b-\ 8gg\	.	8b-\ 8gg\	.	.	.	.	.	.	.	.	.	.	.
8E-\	.	.	8G\ 8e-\	.	8b-\ 8gg\	.	8b-\ 8gg\	.	4E-\	.	4e-\	.	4g\	.	4ee-\	.	4gg\	.
8E-\J	.	.	8G\ 8e-J\	.	8b-\ 8ggJ\	.	8b-\ 8gg\J	.	.	.	.	.	.	.	.	.	.	.
*Xtremolo	*	*	*Xtremolo	*	*Xtremolo	*	*Xtremolo	*	*	*	*	*	*	*	*	*	*Xhead	*
!	!	!	!	!	!	!	!LO:LB:g=original	!	!	!	!	!	!	!	!	!	!LO:LB:g=original	!
=53	=53	=53	=53	=53	=53	=53	=53	=53	=53	=53	=53	=53	=53	=53	=53	=53	=53	=53
4E-\	.	.	4G/ 4e-/	.	4b-\ 4gg\	.	4b-\ 4gg\	.	4E-\	.	4e-\	.	4g\	.	4ee-\	.	4gg\	.
4E-\	.	.	4E-/	.	4G/ 4e-/	.	4e-/ 4ee-/	.	4E-\	.	4G/	.	4e-\	.	4g\	.	4ee-\	.
!	!	!	!LO:TX:t=P:problem=na odwrocie karty brak dalszego ciągu partii	!	!	!	!	!	!	!	!	!	!	!	!	!	!	!
!	!	!	!LO:TX:a:t=Verte 2da Pars	!	!LO:TX:b:t=Verte 2da Pars	!	!	!	!	!	!	!	!	!	!	!	!	!
4E-\	.	.	4E-/	.	4G/ 4e-/	.	4e-/ 4ee-/	.	4E-\	.	4G/	.	4e-\	.	4g\	.	4ee-\	.
!	!	!	!	!	!LO:PB:g=original	!	!	!	!	!	!	!	!LO:LB:g=original	!	!	!	!	!
=:!|!:	=:!|!:	=:!|!:	=||	=||	=:!|!:	=:!|!:	=:!|!:	=:!|!:	=:!|!:	=	=:!|!:	=	=:!|!:	=:!|!:	=:!|!:	=:!|!:	=:!|!:	=:!|!:
*>B	*	*	*>B	*	*>B	*	*>B	*	*>B	*	*>B	*	*>B	*	*>B	*	*>B	*
4r	.	.	4ryy	.	4r	.	8.G/L	.	4r	.	4r	.	4r	.	4r	.	4r	.
.	.	.	.	.	.	.	16G/Jk	.	.	.	.	.	.	.	.	.	.	.
=54	=54	=54	=54	=54	=54	=54	=54	=54	=54	=54	=54	=54	=54	=54	=54	=54	=54	=54
!	!LO:DY:b:rj:t=for	!	!	!	!	!LO:DY:b:rj:t=for	!	!LO:DY:b:rj:t=for	!	!	!	!	!	!LO:DY:b:t=for	!	!	!	!LO:DY:b:rj:t=for
2GG/	f	.	1ryy	.	2G/ 2g/	f	2G/ 2g/	f	2BB-/	.	2G/	.	2g\	f	2g/	.	2gg\	f
*	*	*	*	*	*	*	*	*	*	*	*	*	*	*	*	*	*head:invis	*
4.GG/	.	.	.	.	4.G/ 4.g/	.	4.G/ 4.g/	.	4.BB-/	.	2r	.	2r	.	4.g/	.	4.gg\	.
8GG/	.	.	.	.	8G/ 8g/	.	8G/ 8g/	.	8BB-/	.	.	.	.	.	8g/	.	8gg\	.
*	*	*	*	*	*	*	*	*	*2\right	*	*	*	*	*	*	*	*Xhead	*
!	!	!	!	!	!	!	!	!	!LO:LB:g=original	!	!	!	!	!	!	!	!	!
=55	=55	=55	=55	=55	=55	=55	=55	=55	=55	=55	=55	=55	=55	=55	=55	=55	=55	=55
!	!	!	!	!	!	!	!	!	!	!	!LO:TX:a:t=3	!	!LO:TX:a:t=3	!	!	!	!	!
2AA-/	.	.	1ryy	.	2A-/ 2a-/	.	2A-/ 2a-/	.	2E-\	.	0r	.	0r	.	2a-\	.	2aa-\	.
4r	.	.	.	.	4r	.	4r	.	2r	.	.	.	.	.	2r	.	2r	.
*	*	*	*	*	*	*	*tremolo	*	*	*	*	*	*	*	*	*	*	*
8ryy	.	.	.	.	4Bn/	.	16Bn/LL	.	.	.	.	.	.	.	.	.	.	.
.	.	.	.	.	.	.	16Bn/	.	.	.	.	.	.	.	.	.	.	.
8BBn/	.	.	.	.	.	.	16Bn/	.	.	.	.	.	.	.	.	.	.	.
.	.	.	.	.	.	.	16Bn/JJ	.	.	.	.	.	.	.	.	.	.	.
*	*	*	*	*	*	*	*Xtremolo	*	*	*	*	*	*	*	*	*	*	*
=56	=56	=56	=56	=56	=56	=56	=56	=56	=56	=56	=56-	=56	=56-	=56	=56	=56	=56	=56
!LO:TX:a:t=|:problem	!	!	!	!	!	!	!	!	!LO:TX:a:t=2	!	!	!	!	!	!LO:TX:a:t=1	!	!LO:TX:a:t=1	!
8C\L	.	.	1ryy	.	16c/LL	.	16c/LL	.	0r	.	.	.	.	.	1r	.	1r	.
.	.	.	.	.	16c/	.	16c/	.	.	.	.	.	.	.	.	.	.	.
!LO:TX:a:t=|:problem	!	!	!	!	!	!	!	!	!	!	!	!	!	!	!	!	!	!
8D\	.	.	.	.	16d/	.	16d/	.	.	.	.	.	.	.	.	.	.	.
.	.	.	.	.	16d/JJ	.	16d/JJ	.	.	.	.	.	.	.	.	.	.	.
!LO:TX:a:t=|:problem	!	!	!	!	!	!	!	!	!	!	!	!	!	!	!	!	!	!
8E-\	.	.	.	.	16e-/LL	.	16e-/LL	.	.	.	.	.	.	.	.	.	.	.
.	.	.	.	.	16e-/	.	16e-/	.	.	.	.	.	.	.	.	.	.	.
!LO:TX:a:t=|:problem	!	!	!	!	!	!	!	!	!	!	!	!	!	!	!	!	!	!
8F\J	.	.	.	.	16f/	.	16f/	.	.	.	.	.	.	.	.	.	.	.
.	.	.	.	.	16f/JJ	.	16f/JJ	.	.	.	.	.	.	.	.	.	.	.
8G\L	.	.	.	.	16g/LL	.	16g/LL	.	.	.	.	.	.	.	.	.	.	.
.	.	.	.	.	16g/	.	16g/	.	.	.	.	.	.	.	.	.	.	.
8A-\	.	.	.	.	16a-/	.	16a-/	.	.	.	.	.	.	.	.	.	.	.
.	.	.	.	.	16a-/JJ	.	16a-/JJ	.	.	.	.	.	.	.	.	.	.	.
8Bn\	.	.	.	.	16bn\LL	.	16bn\LL	.	.	.	.	.	.	.	.	.	.	.
.	.	.	.	.	16b\	.	16b\	.	.	.	.	.	.	.	.	.	.	.
*head:invis	*	*	*	*	*	*	*	*	*	*	*	*	*	*	*	*	*	*
8c\J	.	.	.	.	16cc\	.	16cc\	.	.	.	.	.	.	.	.	.	.	.
.	.	.	.	.	16cc\JJ	.	16cc\JJ	.	.	.	.	.	.	.	.	.	.	.
*Xhead	*	*	*	*	*	*	*	*	*	*	*	*	*	*	*	*	*	*
=57	=57	=57	=57	=57	=57	=57	=57	=57	=57-	=57	=57-	=57	=57-	=57	=57	=57	=57	=57
8d\L	.	.	1ryy	.	16dd\LL	.	16dd\LL	.	.	.	1r	.	1r	.	4r	.	4r	.
.	.	.	.	.	16dd\	.	16dd\	.	.	.	.	.	.	.	.	.	.	.
8Bn\J	.	.	.	.	16bn\	.	16bn\	.	.	.	.	.	.	.	.	.	.	.
.	.	.	.	.	16b\JJ	.	16b\JJ	.	.	.	.	.	.	.	.	.	.	.
*head:invis	*	*	*	*	*	*	*	*	*	*	*	*	*	*	*	*	*	*
4c\	.	.	.	.	4cc\	.	4cc\	.	.	.	.	.	.	.	8r	.	8r	.
*	*	*	*	*	*	*	*	*	*	*	*	*	*	*	*	*	*head:invis	*
!	!	!	!	!	!	!	!	!	!	!	!	!	!	!	!LO:TX:a:t=Solo	!	!LO:TX:a:t=Solo:rj	!
.	.	.	.	.	.	.	.	.	.	.	.	.	.	.	8ee-\	.	(>8gg\	.
*Xhead	*	*	*	*	*	*	*	*	*	*	*	*	*	*	*	*	*Xhead	*
2r	.	.	.	.	2r	.	2r	.	.	.	.	.	.	.	(>8dd\L	.	8ff\L	.
*	*	*	*	*	*	*	*	*	*	*	*	*	*	*	*	*	*head:invis	*
.	.	.	.	.	.	.	.	.	.	.	.	.	.	.	8ee-\	.	8gg\)	.
*	*	*	*	*	*	*	*	*	*	*	*	*	*	*	*	*	*Xhead	*
.	.	.	.	.	.	.	.	.	.	.	.	.	.	.	8ff\)	.	8aa-\	.
*	*	*	*	*	*	*	*	*	*	*	*	*	*	*	*	*	*head:invis	*
.	.	.	.	.	.	.	.	.	.	.	.	.	.	.	8ee-\J	.	8gg\J	.
*	*	*	*	*	*	*	*	*	*	*	*	*	*	*	*	*	*Xhead	*
!	!	!	!	!	!	!	!LO:PB:g=original	!	!	!	!	!	!	!	!	!	!	!
=58	=58	=58	=58	=58	=58	=58	=58	=58	=58	=58	=58	=58	=58	=58	=58	=58	=58	=58
2B-\	.	.	1ryy	.	2d/ 2b-/	.	2d/ 2b-X/	.	2BB-/	.	2B-/	.	2b-\	.	2dd\	.	2ff\	.
4.B-\	.	.	.	.	4.d/ 4.b-/	.	4.d/ 4.b-/	.	4.BB-/	.	4.B-/	.	4.b-\	.	4.dd\	.	4.ff\	.
8B-\	.	.	.	.	8d/ 8b-/	.	8d/ 8b-/	.	8BB-/	.	8B-/	.	8b-\	.	8dd\	.	8ff\	.
!LO:LB:g=original	!	!	!	!	!	!	!	!	!	!	!	!	!	!	!	!	!	!
=59	=59	=59	=59	=59	=59	=59	=59	=59	=59	=59	=59	=59	=59	=59	=59	=59	=59	=59
2Bn\	.	.	1ryy	.	2d/ 2bn/	.	2G/ 2bn/	.	2E-\	.	2G/	.	2g\	.	2dd\	.	2gg\	.
4r	.	.	.	.	4r	.	4r	.	2r	.	2r	.	2r	.	2r	.	2r	.
*	*	*	*	*	*tremolo	*	*tremolo	*	*	*	*	*	*	*	*	*	*	*
4GG/	.	.	.	.	16g/LL	.	16g/LL	.	.	.	.	.	.	.	.	.	.	.
.	.	.	.	.	16g/	.	16g/	.	.	.	.	.	.	.	.	.	.	.
.	.	.	.	.	16g/	.	16g/	.	.	.	.	.	.	.	.	.	.	.
.	.	.	.	.	16g/JJ	.	16g/JJ	.	.	.	.	.	.	.	.	.	.	.
*	*	*	*	*	*Xtremolo	*	*Xtremolo	*	*	*	*	*	*	*	*	*	*	*
!	!	!	!	!	!LO:LB:g=original	!	!	!	!	!	!	!	!	!	!LO:LB:g=original	!	!	!
=60	=60	=60	=60	=60	=60	=60	=60	=60	=60	=60	=60	=60	=60	=60	=60	=60	=60	=60
!	!	!	!	!	!	!	!	!	!LO:TX:a:t=2	!	!LO:TX:a:t=2	!	!LO:TX:a:t=2	!	!LO:TX:a:t=1	!	!LO:TX:a:t=1	!
8AA-/L	.	.	1ryy	.	16a-\LL	.	16a-\LL	.	0r	.	0r	.	0r	.	1r	.	1r	.
.	.	.	.	.	16a-\	.	16a-\	.	.	.	.	.	.	.	.	.	.	.
8BBn/	.	.	.	.	16bn\	.	16bn\	.	.	.	.	.	.	.	.	.	.	.
.	.	.	.	.	16b\JJ	.	16b\JJ	.	.	.	.	.	.	.	.	.	.	.
8C/	.	.	.	.	16cc\LL	.	16cc\LL	.	.	.	.	.	.	.	.	.	.	.
.	.	.	.	.	16cc\	.	16cc\	.	.	.	.	.	.	.	.	.	.	.
8D/J	.	.	.	.	16dd\	.	16dd\	.	.	.	.	.	.	.	.	.	.	.
.	.	.	.	.	16dd\JJ	.	16dd\JJ	.	.	.	.	.	.	.	.	.	.	.
8E-\L	.	.	.	.	16ee-\LL	.	16ee-\LL	.	.	.	.	.	.	.	.	.	.	.
.	.	.	.	.	16ee-\	.	16ee-\	.	.	.	.	.	.	.	.	.	.	.
8D\	.	.	.	.	16dd\	.	16dd\	.	.	.	.	.	.	.	.	.	.	.
.	.	.	.	.	16dd\JJ	.	16dd\JJ	.	.	.	.	.	.	.	.	.	.	.
8E-\	.	.	.	.	16ee-\LL	.	16ee-\LL	.	.	.	.	.	.	.	.	.	.	.
.	.	.	.	.	16ee-\	.	16ee-\	.	.	.	.	.	.	.	.	.	.	.
8C\J	.	.	.	.	16cc\	.	16cc\	.	.	.	.	.	.	.	.	.	.	.
.	.	.	.	.	16cc\JJ	.	16cc\JJ	.	.	.	.	.	.	.	.	.	.	.
=61	=61	=61	=61	=61	=61	=61	=61	=61	=61-	=61	=61-	=61	=61-	=61	=61	=61	=61	=61
!	!	!	!	!	!LO:SIC:v:s:n=1:t=4bn	!	!	!	!	!	!	!	!	!	!	!	!	!
4GG/	.	.	1ryy	.	4d/ 4b-/	.	4d/ 4bn/	.	.	.	.	.	.	.	2r	.	2r	.
!	!	!	!	!	!LO:SIC:v:s:n=1:t=4bn	!	!	!	!	!	!	!	!	!	!	!	!	!
4G\	.	.	.	.	4b-/ 4gg/	.	4b/ 4gg/	.	.	.	.	.	.	.	.	.	.	.
!	!	!	!	!	!	!	!	!	!	!	!	!	!	!	!LO:TX:a:t=Solo	!	!LO:TX:a:t=Solo	!
2r	.	.	.	.	2r	.	8r	.	.	.	.	.	.	.	8r	.	8r	.
*	*	*	*	*	*	*	*	*	*	*	*	*	*	*	*	*	*head:invis	*
.	.	.	.	.	.	.	8gg\L	.	.	.	.	.	.	.	8ee-\L	.	8gg\L	.
.	.	.	.	.	.	.	8gg\	.	.	.	.	.	.	.	8dd\	.	8gg\	.
.	.	.	.	.	.	.	8gg\J	.	.	.	.	.	.	.	8ee-\J	.	8gg\J	.
*	*	*	*	*	*	*	*	*	*	*	*	*	*	*	*	*	*Xhead	*
!	!	!	!	!	!	!	!	!	!	!	!	!	!	!	!	!	!LO:LB:g=original	!
=62	=62	=62	=62	=62	=62	=62	=62	=62	=62	=62	=62	=62	=62	=62	=62	=62	=62	=62
!	!	!	!	!	!	!	!	!LO:DY:b:rj:t=for	!	!	!	!	!	!	!	!	!	!
2BB-/	.	.	1ryy	.	4b-\ 4aa-\	.	4.b-X\ 4.aa-\	f	2BB-/	.	2B-/	.	2b-\	.	2b-\	.	2aa-\	.
.	.	.	.	.	4r	.	.	.	.	.	.	.	.	.	.	.	.	.
.	.	.	.	.	.	.	16ff\LL	.	.	.	.	.	.	.	.	.	.	.
.	.	.	.	.	.	.	16dd\JJ	.	.	.	.	.	.	.	.	.	.	.
2r	.	.	.	.	2r	.	8b-\L	.	2r	.	2r	.	2r	.	2r	.	2r	.
.	.	.	.	.	.	.	8b-\	.	.	.	.	.	.	.	.	.	.	.
.	.	.	.	.	.	.	8b-\	.	.	.	.	.	.	.	.	.	.	.
.	.	.	.	.	.	.	8b-\J	.	.	.	.	.	.	.	.	.	.	.
=63	=63	=63	=63	=63	=63	=63	=63	=63	=63	=63	=63	=63	=63	=63	=63	=63	=63	=63
2BB-/	.	.	1ryy	.	4b-\ 4aa-\	.	4.b-\ 4.aa-\	.	2BB-/	.	2B-/	.	2b-\	.	2b-\	.	2aa-\	.
.	.	.	.	.	4r	.	.	.	.	.	.	.	.	.	.	.	.	.
.	.	.	.	.	.	.	16ff\LL	.	.	.	.	.	.	.	.	.	.	.
.	.	.	.	.	.	.	16dd\JJ	.	.	.	.	.	.	.	.	.	.	.
2r	.	.	.	.	2r	.	8b-\L	.	2r	.	2r	.	2r	.	2r	.	2r	.
.	.	.	.	.	.	.	8b-\	.	.	.	.	.	.	.	.	.	.	.
.	.	.	.	.	.	.	8b-\	.	.	.	.	.	.	.	.	.	.	.
.	.	.	.	.	.	.	8b-\J	.	.	.	.	.	.	.	.	.	.	.
!	!	!	!	!	!	!	!LO:LB:g=original	!	!	!	!LO:LB:g=original	!	!	!	!	!	!	!
=64	=64	=64	=64	=64	=64	=64	=64	=64	=64	=64	=64	=64	=64	=64	=64	=64	=64	=64
2BB-/	.	.	1ryy	.	2b-\ 2aa-\	.	16aa-\LL	.	2BB-/	.	2B-/	.	2b-\	.	2b-\	.	2aa-\	.
.	.	.	.	.	.	.	16gg\	.	.	.	.	.	.	.	.	.	.	.
.	.	.	.	.	.	.	16ff\	.	.	.	.	.	.	.	.	.	.	.
.	.	.	.	.	.	.	16gg\JJ	.	.	.	.	.	.	.	.	.	.	.
.	.	.	.	.	.	.	16ff\LL	.	.	.	.	.	.	.	.	.	.	.
.	.	.	.	.	.	.	16ee-\	.	.	.	.	.	.	.	.	.	.	.
.	.	.	.	.	.	.	16dd\	.	.	.	.	.	.	.	.	.	.	.
.	.	.	.	.	.	.	16ee-\JJ	.	.	.	.	.	.	.	.	.	.	.
2r	.	.	.	.	2r	.	16dd\LL	.	2r	.	2r	.	2r	.	2r	.	2r	.
.	.	.	.	.	.	.	16cc\	.	.	.	.	.	.	.	.	.	.	.
.	.	.	.	.	.	.	16b-\	.	.	.	.	.	.	.	.	.	.	.
.	.	.	.	.	.	.	16cc\JJ	.	.	.	.	.	.	.	.	.	.	.
.	.	.	.	.	.	.	16b-\LL	.	.	.	.	.	.	.	.	.	.	.
.	.	.	.	.	.	.	16a-\	.	.	.	.	.	.	.	.	.	.	.
.	.	.	.	.	.	.	16g\	.	.	.	.	.	.	.	.	.	.	.
.	.	.	.	.	.	.	16f\JJ	.	.	.	.	.	.	.	.	.	.	.
=65	=65	=65	=65	=65	=65	=65	=65	=65	=65	=65	=65	=65	=65	=65	=65	=65	=65	=65
!LO:TX:a:t=1	!	!	!	!	!LO:TX:a:t=8	!	!	!	!LO:TX:a:t=12	!	!LO:TX:b:t=8	!	!LO:TX:a:t=8	!	!LO:TX:a:t=12	!	!LO:TX:a:t=1.	!
1r	.	.	1ryy	.	1r	.	16e-/LL	.	1r	.	1r	.	1r	.	1r	.	1r	.
.	.	.	.	.	.	.	16b-/	.	.	.	.	.	.	.	.	.	.	.
.	.	.	.	.	.	.	16g/	.	.	.	.	.	.	.	.	.	.	.
.	.	.	.	.	.	.	16b-/JJ	.	.	.	.	.	.	.	.	.	.	.
.	.	.	.	.	.	.	16e-/LL	.	.	.	.	.	.	.	.	.	.	.
.	.	.	.	.	.	.	16b-/	.	.	.	.	.	.	.	.	.	.	.
.	.	.	.	.	.	.	16g/	.	.	.	.	.	.	.	.	.	.	.
.	.	.	.	.	.	.	16b-/JJ	.	.	.	.	.	.	.	.	.	.	.
.	.	.	.	.	.	.	16e-/LL	.	.	.	.	.	.	.	.	.	.	.
.	.	.	.	.	.	.	16b-/	.	.	.	.	.	.	.	.	.	.	.
.	.	.	.	.	.	.	16g/	.	.	.	.	.	.	.	.	.	.	.
.	.	.	.	.	.	.	16b-/JJ	.	.	.	.	.	.	.	.	.	.	.
.	.	.	.	.	.	.	16e-/LL	.	.	.	.	.	.	.	.	.	.	.
.	.	.	.	.	.	.	16b-/	.	.	.	.	.	.	.	.	.	.	.
.	.	.	.	.	.	.	16g/	.	.	.	.	.	.	.	.	.	.	.
.	.	.	.	.	.	.	16b-/JJ	.	.	.	.	.	.	.	.	.	.	.
=66	=66	=66	=66	=66	=66-	=66	=66	=66	=66-	=66	=66-	=66	=66-	=66	=66-	=66	=66	=66
*2\right	*	*	*	*	*	*	*	*	*	*	*	*	*	*	*	*	*	*
*tremolo	*	*	*	*	*	*	*	*	*	*	*	*	*	*	*	*	*	*
!	!LO:DY:b:rj:t=pia	!	!	!	!	!	!	!	!	!	!	!	!	!	!	!	!LO:TX:a:t=Solo:rj	!
8E-\L	p	.	1ryy	.	1r	.	16e-/LL	.	1r	.	1r	.	1r	.	1r	.	4.gg\	.
.	.	.	.	.	.	.	16b-/	.	.	.	.	.	.	.	.	.	.	.
8e-\	.	.	.	.	.	.	16g/	.	.	.	.	.	.	.	.	.	.	.
.	.	.	.	.	.	.	16b-/JJ	.	.	.	.	.	.	.	.	.	.	.
8E-\	.	.	.	.	.	.	16e-/LL	.	.	.	.	.	.	.	.	.	.	.
.	.	.	.	.	.	.	16b-/	.	.	.	.	.	.	.	.	.	.	.
8e-\J	.	.	.	.	.	.	16g/	.	.	.	.	.	.	.	.	.	16ff\LL	.
.	.	.	.	.	.	.	16b-/JJ	.	.	.	.	.	.	.	.	.	16ee-\JJ	.
!	!	!	!	!	!	!	!	!	!	!	!	!	!	!	!	!	!LO:TX:a:t=|:problem	!
8E-\L	.	.	.	.	.	.	16e-/LL	.	.	.	.	.	.	.	.	.	8ee-\L	.
.	.	.	.	.	.	.	16b-/	.	.	.	.	.	.	.	.	.	.	.
!	!	!	!	!	!	!	!	!	!	!	!	!	!	!	!	!	!LO:TX:a:t=|:problem	!
8e-\	.	.	.	.	.	.	16g/	.	.	.	.	.	.	.	.	.	8ee-\J	.
.	.	.	.	.	.	.	16b-/JJ	.	.	.	.	.	.	.	.	.	.	.
8E-\	.	.	.	.	.	.	16e-/LL	.	.	.	.	.	.	.	.	.	16ff\LL	.
.	.	.	.	.	.	.	16b-/	.	.	.	.	.	.	.	.	.	(>16ee-\	.
8e-\J	.	.	.	.	.	.	16g/	.	.	.	.	.	.	.	.	.	16dd\	.
.	.	.	.	.	.	.	16b-/JJ	.	.	.	.	.	.	.	.	.	16ee-\JJ)	.
=67	=67	=67	=67	=67	=67-	=67	=67	=67	=67-	=67	=67-	=67	=67-	=67	=67-	=67	=67	=67
8BB-\L	.	.	1ryy	.	1r	.	16d/LL	.	1r	.	1r	.	1r	.	1r	.	16eeX\LL	.
.	.	.	.	.	.	.	16b-/	.	.	.	.	.	.	.	.	.	16ff\	.
*	*	*	*	*	*	*	*	*	*	*	*	*	*	*	*	*	*head:invis	*
8B-\	.	.	.	.	.	.	16f/	.	.	.	.	.	.	.	.	.	16gg\	.
*	*	*	*	*	*	*	*	*	*	*	*	*	*	*	*	*	*Xhead	*
.	.	.	.	.	.	.	16b-/JJ	.	.	.	.	.	.	.	.	.	16ff\JJ	.
8BB-\	.	.	.	.	.	.	16d/LL	.	.	.	.	.	.	.	.	.	16ee-\LL	.
.	.	.	.	.	.	.	16b-/	.	.	.	.	.	.	.	.	.	16dd\	.
8B-\J	.	.	.	.	.	.	16f/	.	.	.	.	.	.	.	.	.	16cc\	.
.	.	.	.	.	.	.	16b-/JJ	.	.	.	.	.	.	.	.	.	16dd\JJ	.
8E-\L	.	.	.	.	.	.	16e-/LL	.	.	.	.	.	.	.	.	.	(>8ee-\L	.
.	.	.	.	.	.	.	16b-/	.	.	.	.	.	.	.	.	.	.	.
*head:invis	*	*	*	*	*	*	*	*	*	*	*	*	*	*	*	*	*	*
8e-\J	.	.	.	.	.	.	16g/	.	.	.	.	.	.	.	.	.	8gg\J)	.
.	.	.	.	.	.	.	16b-/JJ	.	.	.	.	.	.	.	.	.	.	.
*Xhead	*	*	*	*	*	*	*	*	*	*	*	*	*	*	*	*	*	*
!	!	!	!	!	!	!	!	!	!	!	!	!	!	!	!	!	!LO:TX:a:t=|:problem	!
4E-\	.	.	.	.	.	.	16e-/LL	.	.	.	.	.	.	.	.	.	4bb-\	.
.	.	.	.	.	.	.	16b-/	.	.	.	.	.	.	.	.	.	.	.
.	.	.	.	.	.	.	16g/	.	.	.	.	.	.	.	.	.	.	.
.	.	.	.	.	.	.	16b-/JJ	.	.	.	.	.	.	.	.	.	.	.
!	!	!	!	!	!	!	!LO:LB:g=original	!	!	!	!	!	!	!	!	!	!	!
=68	=68	=68	=68	=68	=68-	=68	=68	=68	=68-	=68	=68-	=68	=68-	=68	=68-	=68	=68	=68
!	!	!	!	!	!	!	!	!	!	!	!	!	!	!	!	!	!LO:TX:a:t=|:problem	!
8E-\L	.	.	1ryy	.	1r	.	16e-/LL	.	1r	.	1r	.	1r	.	1r	.	4.gg\	.
.	.	.	.	.	.	.	16b-/	.	.	.	.	.	.	.	.	.	.	.
8e-\	.	.	.	.	.	.	16g/	.	.	.	.	.	.	.	.	.	.	.
.	.	.	.	.	.	.	16b-/JJ	.	.	.	.	.	.	.	.	.	.	.
8E-\	.	.	.	.	.	.	16e-/LL	.	.	.	.	.	.	.	.	.	.	.
.	.	.	.	.	.	.	16b-/	.	.	.	.	.	.	.	.	.	.	.
!	!	!	!	!	!	!	!	!	!	!	!	!	!	!	!	!	!LO:TX:a:t=|:problem	!
8e-\J	.	.	.	.	.	.	16g/	.	.	.	.	.	.	.	.	.	16ff\LL	.
.	.	.	.	.	.	.	16b-/JJ	.	.	.	.	.	.	.	.	.	16ee-\JJ	.
!	!	!	!	!	!	!	!	!	!	!	!	!	!	!	!	!	!LO:TX:a:t=|:problem	!
8E-\L	.	.	.	.	.	.	16e-/LL	.	.	.	.	.	.	.	.	.	8ee-\L	.
.	.	.	.	.	.	.	16b-/	.	.	.	.	.	.	.	.	.	.	.
!	!	!	!	!	!	!	!	!	!	!	!	!	!	!	!	!	!LO:TX:a:t=|:problem	!
8e-\	.	.	.	.	.	.	16g/	.	.	.	.	.	.	.	.	.	8ee-\J	.
.	.	.	.	.	.	.	16b-/JJ	.	.	.	.	.	.	.	.	.	.	.
8E-\	.	.	.	.	.	.	16e-/LL	.	.	.	.	.	.	.	.	.	(>16ff\LL	.
.	.	.	.	.	.	.	16b-/	.	.	.	.	.	.	.	.	.	16ee-\	.
8e-\J	.	.	.	.	.	.	16g/	.	.	.	.	.	.	.	.	.	16dd\)	.
.	.	.	.	.	.	.	16b-/JJ	.	.	.	.	.	.	.	.	.	16ee-\JJ	.
!LO:LB:g=original	!	!	!	!	!	!	!	!	!	!	!	!	!	!	!	!	!LO:LB:g=original	!
=69	=69	=69	=69	=69	=69-	=69	=69	=69	=69-	=69	=69-	=69	=69-	=69	=69-	=69	=69	=69
8BB-\L	.	.	1ryy	.	1r	.	16d/LL	.	1r	.	1r	.	1r	.	1r	.	16eeX\LL	.
.	.	.	.	.	.	.	16b-/	.	.	.	.	.	.	.	.	.	16ff\	.
8B-\	.	.	.	.	.	.	16f/	.	.	.	.	.	.	.	.	.	16gg\	.
.	.	.	.	.	.	.	16b-/JJ	.	.	.	.	.	.	.	.	.	16ff\JJ	.
8BB-\	.	.	.	.	.	.	16d/LL	.	.	.	.	.	.	.	.	.	16ee-\LL	.
.	.	.	.	.	.	.	16b-/	.	.	.	.	.	.	.	.	.	16dd\	.
8B-\J	.	.	.	.	.	.	16f/	.	.	.	.	.	.	.	.	.	16cc\	.
.	.	.	.	.	.	.	16b-/JJ	.	.	.	.	.	.	.	.	.	16dd\JJ	.
*Xtremolo	*	*	*	*	*	*	*	*	*	*	*	*	*	*	*	*	*	*
8E-\	.	.	.	.	.	.	16e-/LL	.	.	.	.	.	.	.	.	.	4ee-\	.
.	.	.	.	.	.	.	16B-/	.	.	.	.	.	.	.	.	.	.	.
8r	.	.	.	.	.	.	16An/	.	.	.	.	.	.	.	.	.	.	.
.	.	.	.	.	.	.	16B-/JJ	.	.	.	.	.	.	.	.	.	.	.
4r	.	.	.	.	.	.	16c/LL	.	.	.	.	.	.	.	.	.	4r	.
.	.	.	.	.	.	.	16d/	.	.	.	.	.	.	.	.	.	.	.
.	.	.	.	.	.	.	16e-/	.	.	.	.	.	.	.	.	.	.	.
.	.	.	.	.	.	.	16f/JJ	.	.	.	.	.	.	.	.	.	.	.
=70	=70	=70	=70	=70	=70-	=70	=70	=70	=70-	=70	=70-	=70	=70-	=70	=70-	=70	=70	=70
!	!	!	!	!	!	!	!	!	!	!	!	!	!	!	!	!	!LO:TX:a:t=7	!
8r	.	.	1ryy	.	1r	.	4.g/	.	1r	.	1r	.	1r	.	1r	.	1r	.
8E-\	.	.	.	.	.	.	.	.	.	.	.	.	.	.	.	.	.	.
8r	.	.	.	.	.	.	.	.	.	.	.	.	.	.	.	.	.	.
8E-\	.	.	.	.	.	.	16f/LL	.	.	.	.	.	.	.	.	.	.	.
.	.	.	.	.	.	.	16e-/JJ	.	.	.	.	.	.	.	.	.	.	.
8r	.	.	.	.	.	.	8e-/L	.	.	.	.	.	.	.	.	.	.	.
8E-\	.	.	.	.	.	.	8e-/J	.	.	.	.	.	.	.	.	.	.	.
8r	.	.	.	.	.	.	16f/LL	.	.	.	.	.	.	.	.	.	.	.
.	.	.	.	.	.	.	16e-/	.	.	.	.	.	.	.	.	.	.	.
8E-\	.	.	.	.	.	.	16d/	.	.	.	.	.	.	.	.	.	.	.
.	.	.	.	.	.	.	16e-/JJ	.	.	.	.	.	.	.	.	.	.	.
=71	=71	=71	=71	=71	=71-	=71	=71	=71	=71-	=71	=71-	=71	=71-	=71	=71-	=71	=71-	=71
8r	.	.	1ryy	.	1r	.	16en/LL	.	1r	.	1r	.	1r	.	1r	.	1r	.
.	.	.	.	.	.	.	16f/	.	.	.	.	.	.	.	.	.	.	.
8F\	.	.	.	.	.	.	16g/	.	.	.	.	.	.	.	.	.	.	.
.	.	.	.	.	.	.	16f/JJ	.	.	.	.	.	.	.	.	.	.	.
8r	.	.	.	.	.	.	16e-X/LL	.	.	.	.	.	.	.	.	.	.	.
.	.	.	.	.	.	.	16d/	.	.	.	.	.	.	.	.	.	.	.
8BB-/	.	.	.	.	.	.	16c/	.	.	.	.	.	.	.	.	.	.	.
.	.	.	.	.	.	.	16d/JJ	.	.	.	.	.	.	.	.	.	.	.
8E-\L	.	.	.	.	.	.	8e-/L	.	.	.	.	.	.	.	.	.	.	.
8G\J	.	.	.	.	.	.	8g/J	.	.	.	.	.	.	.	.	.	.	.
4B-\	.	.	.	.	.	.	4b-/	.	.	.	.	.	.	.	.	.	.	.
=72	=72	=72	=72	=72	=72-	=72	=72	=72	=72-	=72	=72-	=72	=72-	=72	=72-	=72	=72-	=72
8r	.	.	1ryy	.	1r	.	4.g/	.	1r	.	1r	.	1r	.	1r	.	1r	.
8E-\	.	.	.	.	.	.	.	.	.	.	.	.	.	.	.	.	.	.
8r	.	.	.	.	.	.	.	.	.	.	.	.	.	.	.	.	.	.
8E-\	.	.	.	.	.	.	16f/LL	.	.	.	.	.	.	.	.	.	.	.
.	.	.	.	.	.	.	16e-/JJ	.	.	.	.	.	.	.	.	.	.	.
8r	.	.	.	.	.	.	8e-/L	.	.	.	.	.	.	.	.	.	.	.
8E-\	.	.	.	.	.	.	8e-/J	.	.	.	.	.	.	.	.	.	.	.
8r	.	.	.	.	.	.	16f/LL	.	.	.	.	.	.	.	.	.	.	.
.	.	.	.	.	.	.	16e-/	.	.	.	.	.	.	.	.	.	.	.
8E-\	.	.	.	.	.	.	16d/	.	.	.	.	.	.	.	.	.	.	.
.	.	.	.	.	.	.	16e-/JJ	.	.	.	.	.	.	.	.	.	.	.
!	!	!	!	!	!	!	!LO:LB:g=original	!	!	!	!	!	!	!	!	!	!	!
=73	=73	=73	=73	=73	=73	=73	=73	=73	=73-	=73	=73	=73	=73	=73	=73-	=73	=73-	=73
8r	.	.	1ryy	.	2r	<	16en/LL	.	1r	.	2r	.	2r	.	1r	.	1r	.
.	.	.	.	.	.	.	16f/	.	.	.	.	.	.	.	.	.	.	.
8F\	.	.	.	.	.	.	16g/	.	.	.	.	.	.	.	.	.	.	.
.	.	.	.	.	.	.	16f/JJ	.	.	.	.	.	.	.	.	.	.	.
8r	.	.	.	.	.	.	16e-X/LL	.	.	.	.	.	.	.	.	.	.	.
.	.	.	.	.	.	.	16d/	.	.	.	.	.	.	.	.	.	.	.
8BB-/	.	.	.	.	.	.	16c/	.	.	.	.	.	.	.	.	.	.	.
.	.	.	.	.	.	.	16d/JJ	.	.	.	.	.	.	.	.	.	.	.
4E-\	.	.	.	.	4G/ 4e-/	.	16e-/LL	.	.	.	2E-/	.	2e-\	.	.	.	.	.
.	.	.	.	.	.	.	16e-/	.	.	.	.	.	.	.	.	.	.	.
.	.	.	.	.	.	.	16g/	.	.	.	.	.	.	.	.	.	.	.
.	.	.	.	.	.	.	16g/JJ	.	.	.	.	.	.	.	.	.	.	.
4r	.	.	.	.	4r	.	16b-\LL	.	.	.	.	.	.	.	.	.	.	.
.	.	.	.	.	.	.	16b-\	.	.	.	.	.	.	.	.	.	.	.
.	.	.	.	.	.	.	16dd\	.	.	.	.	.	.	.	.	.	.	.
.	.	.	.	.	.	.	16dd\JJ	.	.	.	.	.	.	.	.	.	.	.
!	!	!	!	!	!	!	!	!	!	!	!	!	!LO:LB:g=original	!	!	!	!	!
=74	=74	=74	=74	=74	=74	=74	=74	=74	=74-	=74	=74	=74	=74	=74	=74-	=74	=74-	=74
4E-\	<	.	1ryy	.	4G/ 4e-/	.	16ee-\LL	.	1r	.	1E-	<	1e-	.	1r	.	1r	.
.	.	.	.	.	.	.	16ee-\	.	.	.	.	.	.	.	.	.	.	.
.	.	.	.	.	.	.	16g\	.	.	.	.	.	.	.	.	.	.	.
.	.	.	.	.	.	.	16g\JJ	.	.	.	.	.	.	.	.	.	.	.
4r	.	.	.	.	4r	.	16b-\LL	.	.	.	.	.	.	.	.	.	.	.
.	.	.	.	.	.	.	16b-\	.	.	.	.	.	.	.	.	.	.	.
.	.	.	.	.	.	.	16ee-\	.	.	.	.	.	.	.	.	.	.	.
.	.	.	.	.	.	.	16ee-\JJ	.	.	.	.	.	.	.	.	.	.	.
4E-\	.	.	.	.	4G/ 4e-/	.	16gg\LL	.	.	.	.	.	.	.	.	.	.	.
.	.	.	.	.	.	.	16gg\	.	.	.	.	.	.	.	.	.	.	.
.	.	.	.	.	.	.	16b-\	.	.	.	.	.	.	.	.	.	.	.
.	.	.	.	.	.	.	16b-\JJ	.	.	.	.	.	.	.	.	.	.	.
4r	.	.	.	.	4r	.	16ee-\LL	.	.	.	.	.	.	.	.	.	.	.
.	.	.	.	.	.	.	16ee-\	.	.	.	.	.	.	.	.	.	.	.
.	.	.	.	.	.	.	16gg\	.	.	.	.	.	.	.	.	.	.	.
.	.	.	.	.	.	.	16gg\JJ	.	.	.	.	.	.	.	.	.	.	.
!	!	!	!	!	!LO:LB:g=original	!	!	!	!	!	!	!	!	!	!	!	!	!
=75	=75	=75	=75	=75	=75	=75	=75	=75	=75-	=75	=75	=75	=75	=75	=75-	=75	=75-	=75
4E-\	.	3	1ryy	.	4G/ 4e-/	.	16bb-\LL	.	1r	.	1G	.	1e-	.	1r	.	1r	.
.	.	.	.	.	.	.	16bb-\	.	.	.	.	.	.	.	.	.	.	.
.	.	.	.	.	.	.	16ee-\	.	.	.	.	.	.	.	.	.	.	.
.	.	.	.	.	.	.	16ee-\JJ	.	.	.	.	.	.	.	.	.	.	.
4r	.	.	.	.	4r	.	16gg\LL	.	.	.	.	.	.	.	.	.	.	.
.	.	.	.	.	.	.	16gg\	.	.	.	.	.	.	.	.	.	.	.
.	.	.	.	.	.	.	16bb-\	.	.	.	.	.	.	.	.	.	.	.
.	.	.	.	.	.	.	16bb-\JJ	.	.	.	.	.	.	.	.	.	.	.
4E-\	.	5 3	.	.	4g/ 4b-/	.	16eee-\LL	.	.	.	.	.	.	.	.	.	.	.
.	.	.	.	.	.	.	16eee-\	.	.	.	.	.	.	.	.	.	.	.
.	.	.	.	.	.	.	16bb-\	.	.	.	.	.	.	.	.	.	.	.
.	.	.	.	.	.	.	16bb-\JJ	.	.	.	.	.	.	.	.	.	.	.
4r	.	.	.	.	4r	.	16gg\LL	.	.	.	.	.	.	.	.	.	.	.
.	.	.	.	.	.	.	16gg\	.	.	.	.	.	.	.	.	.	.	.
.	.	.	.	.	.	.	16bb-\	.	.	.	.	.	.	.	.	.	.	.
.	.	.	.	.	.	.	16bb-\JJ	.	.	.	.	.	.	.	.	.	.	.
!LO:LB:g=original	!	!	!	!	!	!	!	!	!	!	!	!	!	!	!	!	!	!
=76	=76	=76	=76	=76	=76	=76	=76	=76	=76-	=76	=76	=76	=76	=76	=76-	=76	=76-	=76
8e-\L	.	.	1ryy	.	16ee-\LL	.	16eee-\LL	.	1r	.	1G	.	1e-	.	1r	.	1r	.
.	.	.	.	.	16ee-\	.	16eee-\	.	.	.	.	.	.	.	.	.	.	.
8B-\	.	.	.	.	16b-\	.	16bb-\	.	.	.	.	.	.	.	.	.	.	.
.	.	.	.	.	16b-\JJ	.	16bb-\JJ	.	.	.	.	.	.	.	.	.	.	.
8G\	.	.	.	.	16g\LL	.	16gg\LL	.	.	.	.	.	.	.	.	.	.	.
.	.	.	.	.	16g\	.	16gg\	.	.	.	.	.	.	.	.	.	.	.
8B-\J	.	.	.	.	16b-\	.	16bb-\	.	.	.	.	.	.	.	.	.	.	.
.	.	.	.	.	16b-\JJ	.	16bb-\JJ	.	.	.	.	.	.	.	.	.	.	.
*head:invis	*	*	*	*	*	*	*	*	*	*	*	*	*	*	*	*	*	*
!	!	!	!	!	!	!	!LO:LB:g=original	!	!	!	!	!	!	!	!	!	!	!
8e-\L	.	.	.	.	16ee-\LL	.	16eee-\LL	.	.	.	.	.	.	.	.	.	.	.
.	.	.	.	.	16ee-\	.	16eee-\	.	.	.	.	.	.	.	.	.	.	.
*Xhead	*	*	*	*	*	*	*	*	*	*	*	*	*	*	*	*	*	*
8B-\	.	.	.	.	16b-\	.	16bb-\	.	.	.	.	.	.	.	.	.	.	.
.	.	.	.	.	16b-\JJ	.	16bb-\JJ	.	.	.	.	.	.	.	.	.	.	.
8G\	.	.	.	.	16g\LL	.	16gg\LL	.	.	.	.	.	.	.	.	.	.	.
.	.	.	.	.	16g\	.	16gg\	.	.	.	.	.	.	.	.	.	.	.
8B-\J	.	.	.	.	16b-\	.	16bb-\	.	.	.	.	.	.	.	.	.	.	.
.	.	.	.	.	16b-\JJ	.	16bb-\JJ	.	.	.	.	.	.	.	.	.	.	.
=77	=77	=77	=77	=77	=77	=77	=77	=77	=77	=77	=77	=77	=77	=77	=77	=77	=77	=77
*	*	*	*	*	*tremolo	*	*tremolo	*	*	*	*	*	*	*	*	*	*	*
!	!	!	!	!	!	!LO:DY:b:rj:t=for	!	!LO:DY:b:t=for	!	!	!	!	!	!	!	!	!	!LO:DY:b:rj:t=for
4E-\	.	.	1ryy	.	16ee-\LL	f	16eee-\LL	f	4E-\	.	1e-	.	1g	.	1ee-	.	1gg	f
.	.	.	.	.	16ee-\	.	16eee-\	.	.	.	.	.	.	.	.	.	.	.
.	.	.	.	.	16ee-\	.	16eee-\	.	.	.	.	.	.	.	.	.	.	.
.	.	.	.	.	16ee-\JJ	.	16eee-\JJ	.	.	.	.	.	.	.	.	.	.	.
*head:invis	*	*	*	*	*	*	*	*	*	*	*	*	*	*	*	*	*	*
4e-\	.	.	.	.	16b-\LL	.	16bb-\LL	.	4E-\	.	.	.	.	.	.	.	.	.
.	.	.	.	.	16b-\	.	16bb-\	.	.	.	.	.	.	.	.	.	.	.
.	.	.	.	.	16b-\	.	16bb-\	.	.	.	.	.	.	.	.	.	.	.
.	.	.	.	.	16b-\JJ	.	16bb-\JJ	.	.	.	.	.	.	.	.	.	.	.
*Xhead	*	*	*	*	*	*	*	*	*	*	*	*	*	*	*	*	*	*
4B-\	.	.	.	.	16g\LL	.	16gg\LL	.	4E-\	.	.	.	.	.	.	.	.	.
.	.	.	.	.	16g\	.	16gg\	.	.	.	.	.	.	.	.	.	.	.
.	.	.	.	.	16g\	.	16gg\	.	.	.	.	.	.	.	.	.	.	.
.	.	.	.	.	16g\JJ	.	16gg\JJ	.	.	.	.	.	.	.	.	.	.	.
4G\	.	.	.	.	16e-/LL	.	16ee-\LL	.	4E-\	.	.	.	.	.	.	.	.	.
.	.	.	.	.	16e-/	.	16ee-\	.	.	.	.	.	.	.	.	.	.	.
.	.	.	.	.	16e-/	.	16ee-\	.	.	.	.	.	.	.	.	.	.	.
.	.	.	.	.	16e-/JJ	.	16ee-\JJ	.	.	.	.	.	.	.	.	.	.	.
=78	=78	=78	=78	=78	=78	=78	=78	=78	=78	=78	=78	=78	=78	=78	=78	=78	=78	=78
4E-\	.	.	1ryy	.	16B-/LL	.	16b-\LL	.	4E-\	.	1e-	.	1g	.	1ee-	.	1gg	.
.	.	.	.	.	16B-/	.	16b-\	.	.	.	.	.	.	.	.	.	.	.
.	.	.	.	.	16B-/	.	16b-\	.	.	.	.	.	.	.	.	.	.	.
.	.	.	.	.	16B-/JJ	.	16b-\JJ	.	.	.	.	.	.	.	.	.	.	.
4E-\	.	.	.	.	16e-/LL	.	16ee-\LL	.	4E-\	.	.	.	.	.	.	.	.	.
.	.	.	.	.	16e-/	.	16ee-\	.	.	.	.	.	.	.	.	.	.	.
.	.	.	.	.	16e-/	.	16ee-\	.	.	.	.	.	.	.	.	.	.	.
.	.	.	.	.	16e-/JJ	.	16ee-\JJ	.	.	.	.	.	.	.	.	.	.	.
4BB-\	.	.	.	.	16B-/LL	.	16b-\LL	.	4E-\	.	.	.	.	.	.	.	.	.
.	.	.	.	.	16B-/	.	16b-\	.	.	.	.	.	.	.	.	.	.	.
.	.	.	.	.	16B-/	.	16b-\	.	.	.	.	.	.	.	.	.	.	.
.	.	.	.	.	16B-/JJ	.	16b-\JJ	.	.	.	.	.	.	.	.	.	.	.
4GG\	.	.	.	.	16G/LL	.	16g/LL	.	4E-\	.	.	.	.	.	.	.	.	.
.	.	.	.	.	16G/	.	16g/	.	.	.	.	.	.	.	.	.	.	.
.	.	.	.	.	16G/	.	16g/	.	.	.	.	.	.	.	.	.	.	.
.	.	.	.	.	16G/JJ	.	16g/JJ	.	.	.	.	.	.	.	.	.	.	.
*	*	*	*	*	*Xtremolo	*	*Xtremolo	*	*	*	*	*	*	*	*	*	*	*
!	!	!	!	!	!	!	!	!	!LO:LB:g=original	!	!	!	!	!	!	!	!	!
=79	=79	=79	=79	=79	=79	=79	=79	=79	=79	=79	=79	=79	=79	=79	=79	=79	=79	=79
*	*	*	*	*	*	*	*	*	*	*	*	*	*	*	*tremolo	*	*head:invis	*
!!mixed beam:problem
!LO:TX:t=P:problem=mixed beam	!	!	!	!	!LO:TX:t=P:problem=mixed beam	!	!LO:TX:t=P:problem=mixed beam	!	!	!	!	!	!	!	!	!	!	!
8EE-/L	.	.	1ryy	.	8e-/L	.	8G/L 8e-/	.	8E-\L	.	8e-\L	.	8g\L	.	8ee-\L	.	8gg\L	.
8E-\	.	.	.	.	8b-\ 8gg\	.	8b-\ 8gg\	.	8E-\	.	8e-\	.	8g\	.	8ee-\	.	8gg\	.
8E-\	.	.	.	.	8b-\ 8gg\	.	8b-\ 8gg\	.	8E-\	.	8e-\	.	8g\	.	8ee-\	.	8gg\	.
8E-\J	.	.	.	.	8b-\J 8gg\	.	8b-\J 8gg\	.	8E-\J	.	8e-\J	.	8g\J	.	8ee-\J	.	8gg\J	.
*	*	*	*	*	*	*	*	*	*	*	*	*	*	*	*	*	*Xhead	*
*tremolo	*	*	*	*	*tremolo	*	*tremolo	*	*	*	*	*	*	*	*	*	*tremolo	*
8E-\L	.	.	.	.	8b-\ 8ggL\	.	8b-\ 8ggL\	.	8E-\L	.	8e-\L	.	8g\L	.	8ee-\L	.	8gg\L	.
8E-\	.	.	.	.	8b-\ 8gg\	.	8b-\ 8gg\	.	8E-\	.	8e-\	.	8g\	.	8ee-\	.	8gg\	.
8E-\	.	.	.	.	8b-\ 8gg\	.	8b-\ 8gg\	.	8E-\	.	8e-\	.	8g\	.	8ee-\	.	8gg\	.
8E-\J	.	.	.	.	8b-\ 8ggJ\	.	8b-\ 8ggJ	.	8E-\J	.	8e-\J	.	8g\J	.	8ee-\J	.	8gg\J	.
*Xtremolo	*	*	*	*	*Xtremolo	*	*Xtremolo	*	*	*	*	*	*	*	*Xtremolo	*	*Xtremolo	*
=80	=80	=80	=80	=80	=80	=80	=80	=80	=80	=80	=80	=80	=80	=80	=80	=80	=80	=80
*	*	*	*	*	*	*	*	*	*	*	*	*	*	*	*	*	*head:invis	*
4E-\	.	.	1ryy	.	4e-\ 4b-\ 4gg\	.	4e-\ 4b-\ 4gg\	.	4E-\	.	4e-\	.	4g\	.	4ee-\	.	4gg\	.
*	*	*	*	*	*	*	*	*	*	*	*	*	*	*	*	*	*Xhead	*
4e-\	.	.	.	.	4e-/ 4ee-/	.	4e-/ 4ee-/	.	4E-\	.	4G/	.	4e-\	.	4g\	.	4ee-\	.
4E-\	.	.	.	.	4e-/ 4ee-/	.	4e-/ 4ee-/	.	4E-\	.	4G/	.	4e-\	.	4g\	.	4ee-\	.
4r	.	.	.	.	4r	.	4ryy	.	4ryy	.	4r	.	4r	.	4r	.	4r	.
=:|!	=:|!	=:|!	=:|!	=:|!	=:|!	=:|!	=:|!	=:|!	=:|!	=:|!	=:|!	=:|!	=:|!	=:|!	=:|!	=:|!	=:|!	=:|!
*-	*-	*-	*-	*-	*-	*-	*-	*-	*-	*-	*-	*-	*-	*-	*-	*-	*-	*-
!!!system-decoration: [(g1)][(g2)][(g3)][(g4)][(g5)]
!!!RDF**dynam: < = "Cres", fontstyle="italic"
!!!RDF**kern: > = above
!!!RDF**kern: < = below
!!!ENC: Kamil Watkowski
!!!END: 2020-07-21
!!!EED: Jędrzej Mróz
!!!EEV: 2021-12-29
